FangmingXie/snmCAT-seq_SingleCellFusion_integration/run_SingleCellFusion/results/intg_summary_snmcatseq_210222.tsv
sample	cluster_joint_r0.3	cluster_joint_r0.5	cluster_joint_r0.8	cluster_joint_r4	tsne_x	tsne_y	modality
UMB5577_1_UMB5577_2_A10_AD001_rna	2	3	1	1	12.885162	-4.5730424	human_frontal_rna
UMB5577_1_UMB5577_2_A10_AD002_rna	1	2	2	12	7.6870217	-11.027214	human_frontal_rna
UMB5577_1_UMB5577_2_A10_AD004_rna	7	8	9	6	5.2918344	4.7489934	human_frontal_rna
UMB5577_1_UMB5577_2_A10_AD006_rna	9	10	11	9	-0.95410025	6.5278463	human_frontal_rna
UMB5577_1_UMB5577_2_A10_AD007_rna	12	13	13	16	19.809443	0.40609726	human_frontal_rna
UMB5577_1_UMB5577_2_A10_AD008_rna	1	2	2	20	7.0060225	-6.696861	human_frontal_rna
UMB5577_1_UMB5577_2_A10_AD010_rna	2	1	1	27	11.399046	-5.0052247	human_frontal_rna
UMB5577_1_UMB5577_2_A10_AD012_rna	3	4	5	8	16.15641	8.782394	human_frontal_rna
UMB5577_1_UMB5577_2_A11_AD001_rna	2	3	6	4	13.501283	-0.77431476	human_frontal_rna
UMB5577_1_UMB5577_2_A11_AD002_rna	15	16	20	36	-15.134962	-6.954075	human_frontal_rna
UMB5577_1_UMB5577_2_A11_AD004_rna	1	2	2	14	7.637619	-8.283943	human_frontal_rna
UMB5577_1_UMB5577_2_A11_AD006_rna	1	2	2	3	7.263122	-8.330894	human_frontal_rna
UMB5577_1_UMB5577_2_A11_AD007_rna	8	9	10	37	-4.7182083	-8.276403	human_frontal_rna
UMB5577_1_UMB5577_2_A11_AD008_rna	3	4	5	8	17.167618	8.9758625	human_frontal_rna
UMB5577_1_UMB5577_2_A11_AD010_rna	9	10	11	13	2.3097582	6.9957137	human_frontal_rna
UMB5577_1_UMB5577_2_A11_AD012_rna	1	2	2	14	6.2095585	-10.017762	human_frontal_rna
UMB5577_1_UMB5577_2_A1_AD002_rna	6	7	7	23	-1.6929582	-6.4875255	human_frontal_rna
UMB5577_1_UMB5577_2_A1_AD004_rna	2	3	1	1	13.081711	-4.6178493	human_frontal_rna
UMB5577_1_UMB5577_2_A1_AD006_rna	6	7	7	29	0.06064258	-9.115592	human_frontal_rna
UMB5577_1_UMB5577_2_A1_AD007_rna	1	1	17	18	12.006852	-10.541655	human_frontal_rna
UMB5577_1_UMB5577_2_A1_AD008_rna	6	7	18	33	-2.7370782	-7.568053	human_frontal_rna
UMB5577_1_UMB5577_2_A1_AD010_rna	5	6	8	22	9.150904	13.260573	human_frontal_rna
UMB5577_1_UMB5577_2_A1_AD012_rna	7	8	9	6	5.540546	3.7307334	human_frontal_rna
UMB5577_1_UMB5577_2_A2_AD002_rna	2	3	6	4	13.585726	-0.3171421	human_frontal_rna
UMB5577_1_UMB5577_2_A2_AD004_rna	4	5	11	39	-1.5113537	3.686436	human_frontal_rna
UMB5577_1_UMB5577_2_A2_AD006_rna	3	4	5	8	16.341108	9.121762	human_frontal_rna
UMB5577_1_UMB5577_2_A2_AD007_rna	8	9	10	30	-5.8685026	-6.0499725	human_frontal_rna
UMB5577_1_UMB5577_2_A2_AD008_rna	1	1	3	20	8.626628	-6.1224875	human_frontal_rna
UMB5577_1_UMB5577_2_A2_AD010_rna	1	2	2	12	9.084555	-10.205737	human_frontal_rna
UMB5577_1_UMB5577_2_A2_AD012_rna	6	7	7	32	0.9092883	-8.575337	human_frontal_rna
UMB5577_1_UMB5577_2_A3_AD001_rna	9	10	11	9	-0.076136105	5.552744	human_frontal_rna
UMB5577_1_UMB5577_2_A3_AD002_rna	2	3	1	26	12.972541	-2.263797	human_frontal_rna
UMB5577_1_UMB5577_2_A3_AD004_rna	3	4	5	2	15.867658	6.7875495	human_frontal_rna
UMB5577_1_UMB5577_2_A3_AD006_rna	3	4	5	2	14.326759	7.792974	human_frontal_rna
UMB5577_1_UMB5577_2_A3_AD007_rna	11	12	6	10	15.213065	2.1975107	human_frontal_rna
UMB5577_1_UMB5577_2_A3_AD008_rna	4	5	4	11	0.22791466	2.2150106	human_frontal_rna
UMB5577_1_UMB5577_2_A3_AD010_rna	1	2	2	3	7.0658355	-8.018146	human_frontal_rna
UMB5577_1_UMB5577_2_A3_AD012_rna	10	11	14	19	-2.6052027	-1.514935	human_frontal_rna
UMB5577_1_UMB5577_2_A4_AD001_rna	1	2	3	20	7.200336	-6.9897184	human_frontal_rna
UMB5577_1_UMB5577_2_A4_AD002_rna	10	11	14	19	-3.8127315	-2.1007707	human_frontal_rna
UMB5577_1_UMB5577_2_A4_AD006_rna	1	1	3	7	10.272504	-7.6416683	human_frontal_rna
UMB5577_1_UMB5577_2_A4_AD007_rna	3	4	5	2	14.605488	7.7244654	human_frontal_rna
UMB5577_1_UMB5577_2_A4_AD008_rna	9	10	11	9	-1.24909	6.033539	human_frontal_rna
UMB5577_1_UMB5577_2_A4_AD010_rna	1	2	2	3	6.208737	-7.826206	human_frontal_rna
UMB5577_1_UMB5577_2_A4_AD012_rna	1	2	3	20	7.4219017	-6.7422934	human_frontal_rna
UMB5577_1_UMB5577_2_A5_AD001_rna	2	3	1	25	10.778364	-3.7315023	human_frontal_rna
UMB5577_1_UMB5577_2_A5_AD002_rna	15	16	20	36	-14.994241	-7.62037	human_frontal_rna
UMB5577_1_UMB5577_2_A5_AD004_rna	1	2	2	12	7.930032	-10.945396	human_frontal_rna
UMB5577_1_UMB5577_2_A5_AD006_rna	2	3	1	5	12.365847	-2.7823672	human_frontal_rna
UMB5577_1_UMB5577_2_A5_AD008_rna	1	1	12	17	8.127935	-5.1507893	human_frontal_rna
UMB5577_1_UMB5577_2_A5_AD010_rna	1	2	12	17	6.2962914	-4.923362	human_frontal_rna
UMB5577_1_UMB5577_2_A5_AD012_rna	2	1	1	1	11.997789	-5.592907	human_frontal_rna
UMB5577_1_UMB5577_2_A6_AD001_rna	1	2	2	3	7.0080833	-8.277898	human_frontal_rna
UMB5577_1_UMB5577_2_A6_AD002_rna	1	2	2	17	6.9158697	-6.3879294	human_frontal_rna
UMB5577_1_UMB5577_2_A6_AD004_rna	4	5	4	21	1.4991754	-0.4674017	human_frontal_rna
UMB5577_1_UMB5577_2_A6_AD006_rna	1	2	2	14	5.967046	-8.6473255	human_frontal_rna
UMB5577_1_UMB5577_2_A6_AD007_rna	1	2	2	12	8.265342	-10.946005	human_frontal_rna
UMB5577_1_UMB5577_2_A6_AD008_rna	8	9	10	35	-8.087225	-8.758569	human_frontal_rna
UMB5577_1_UMB5577_2_A6_AD010_rna	2	3	1	5	11.279711	-2.2863011	human_frontal_rna
UMB5577_1_UMB5577_2_A6_AD012_rna	1	2	2	14	6.6333046	-9.530915	human_frontal_rna
UMB5577_1_UMB5577_2_A7_AD001_rna	3	4	13	41	13.344904	10.306957	human_frontal_rna
UMB5577_1_UMB5577_2_A7_AD002_rna	9	10	11	9	0.018212838	7.34632	human_frontal_rna
UMB5577_1_UMB5577_2_A7_AD004_rna	13	14	19	42	-7.11628	4.9455185	human_frontal_rna
UMB5577_1_UMB5577_2_A7_AD006_rna	6	7	7	32	-0.37517795	-7.1252375	human_frontal_rna
UMB5577_1_UMB5577_2_A7_AD007_rna	1	2	12	17	5.9651875	-6.2305956	human_frontal_rna
UMB5577_1_UMB5577_2_A7_AD008_rna	3	4	5	41	14.404982	9.887255	human_frontal_rna
UMB5577_1_UMB5577_2_A7_AD010_rna	1	2	2	14	7.962809	-8.259885	human_frontal_rna
UMB5577_1_UMB5577_2_A7_AD012_rna	2	1	1	1	12.603606	-5.2952757	human_frontal_rna
UMB5577_1_UMB5577_2_A8_AD001_rna	2	3	1	5	12.43908	-2.2944567	human_frontal_rna
UMB5577_1_UMB5577_2_A8_AD002_rna	4	5	4	21	0.9611618	0.36226764	human_frontal_rna
UMB5577_1_UMB5577_2_A8_AD004_rna	9	10	11	9	-0.034124687	6.466569	human_frontal_rna
UMB5577_1_UMB5577_2_A8_AD006_rna	1	2	2	3	7.7892685	-8.754564	human_frontal_rna
UMB5577_1_UMB5577_2_A8_AD007_rna	7	8	9	13	3.685306	5.7131667	human_frontal_rna
UMB5577_1_UMB5577_2_A8_AD008_rna	7	8	9	6	5.6460533	4.92287	human_frontal_rna
UMB5577_1_UMB5577_2_A8_AD012_rna	2	12	6	4	15.107546	0.7537004	human_frontal_rna
UMB5577_1_UMB5577_2_A9_AD001_rna	9	10	11	9	-1.1944132	6.6340847	human_frontal_rna
UMB5577_1_UMB5577_2_A9_AD004_rna	1	1	3	18	11.656336	-9.0716715	human_frontal_rna
UMB5577_1_UMB5577_2_A9_AD006_rna	5	6	8	22	11.003179	13.947431	human_frontal_rna
UMB5577_1_UMB5577_2_A9_AD007_rna	5	6	8	22	10.197448	13.976726	human_frontal_rna
UMB5577_1_UMB5577_2_A9_AD008_rna	7	8	9	6	5.2031355	4.102558	human_frontal_rna
UMB5577_1_UMB5577_2_A9_AD010_rna	9	10	11	39	-2.1101525	3.8213046	human_frontal_rna
UMB5577_1_UMB5577_2_A9_AD012_rna	1	1	3	18	10.934218	-8.697533	human_frontal_rna
UMB5577_1_UMB5577_2_B10_AD001_rna	1	2	2	17	8.308027	-6.772762	human_frontal_rna
UMB5577_1_UMB5577_2_B10_AD002_rna	2	1	1	27	9.468877	-4.1830935	human_frontal_rna
UMB5577_1_UMB5577_2_B10_AD004_rna	1	2	2	20	6.3694334	-6.941588	human_frontal_rna
UMB5577_1_UMB5577_2_B10_AD006_rna	7	8	9	13	3.9186225	5.722595	human_frontal_rna
UMB5577_1_UMB5577_2_B10_AD007_rna	8	9	10	40	-4.48399	-4.717684	human_frontal_rna
UMB5577_1_UMB5577_2_B10_AD008_rna	4	5	4	11	1.3138722	2.500955	human_frontal_rna
UMB5577_1_UMB5577_2_B10_AD010_rna	11	12	6	10	16.88354	2.6861203	human_frontal_rna
UMB5577_1_UMB5577_2_B10_AD012_rna	2	3	1	26	13.11337	-2.0526986	human_frontal_rna
UMB5577_1_UMB5577_2_B11_AD001_rna	1	2	2	14	5.944415	-9.327986	human_frontal_rna
UMB5577_1_UMB5577_2_B11_AD002_rna	2	1	1	27	9.10827	-4.4124036	human_frontal_rna
UMB5577_1_UMB5577_2_B11_AD004_rna	3	4	5	8	16.63289	9.570785	human_frontal_rna
UMB5577_1_UMB5577_2_B11_AD006_rna	1	1	3	7	9.311045	-6.2412233	human_frontal_rna
UMB5577_1_UMB5577_2_B11_AD007_rna	1	1	3	7	8.718915	-7.780185	human_frontal_rna
UMB5577_1_UMB5577_2_B11_AD008_rna	6	7	7	23	-2.579078	-6.8871174	human_frontal_rna
UMB5577_1_UMB5577_2_B11_AD010_rna	1	2	2	14	5.9451475	-9.91591	human_frontal_rna
UMB5577_1_UMB5577_2_B11_AD012_rna	6	7	7	29	-0.3750117	-10.002767	human_frontal_rna
UMB5577_1_UMB5577_2_B1_AD001_rna	1	2	3	25	6.561389	-6.725638	human_frontal_rna
UMB5577_1_UMB5577_2_B1_AD006_rna	5	6	8	22	9.270593	13.490971	human_frontal_rna
UMB5577_1_UMB5577_2_B1_AD007_rna	8	9	10	40	-2.872619	-5.67956	human_frontal_rna
UMB5577_1_UMB5577_2_B1_AD008_rna	1	2	2	14	5.6208396	-9.640668	human_frontal_rna
UMB5577_1_UMB5577_2_B1_AD010_rna	1	1	3	25	8.566729	-5.928393	human_frontal_rna
UMB5577_1_UMB5577_2_B1_AD012_rna	1	2	3	12	9.21277	-9.25352	human_frontal_rna
UMB5577_1_UMB5577_2_B2_AD001_rna	4	5	4	21	1.4004533	-0.38656887	human_frontal_rna
UMB5577_1_UMB5577_2_B2_AD002_rna	2	3	1	5	12.262396	-2.1408324	human_frontal_rna
UMB5577_1_UMB5577_2_B2_AD004_rna	4	5	4	15	3.7337053	0.22527641	human_frontal_rna
UMB5577_1_UMB5577_2_B2_AD006_rna	1	2	2	3	7.4226613	-8.167068	human_frontal_rna
UMB5577_1_UMB5577_2_B2_AD007_rna	9	10	11	39	-2.2378905	4.767479	human_frontal_rna
UMB5577_1_UMB5577_2_B2_AD008_rna	1	2	2	12	7.8382745	-9.605449	human_frontal_rna
UMB5577_1_UMB5577_2_B2_AD010_rna	4	5	4	21	1.0068305	-0.12270611	human_frontal_rna
UMB5577_1_UMB5577_2_B2_AD012_rna	8	9	10	30	-6.0651207	-6.8998675	human_frontal_rna
UMB5577_1_UMB5577_2_B3_AD001_rna	4	5	4	11	-0.08082025	1.8777153	human_frontal_rna
UMB5577_1_UMB5577_2_B3_AD002_rna	7	8	9	13	3.568081	6.3405867	human_frontal_rna
UMB5577_1_UMB5577_2_B3_AD004_rna	8	9	10	37	-4.7197914	-7.0738096	human_frontal_rna
UMB5577_1_UMB5577_2_B3_AD006_rna	11	12	6	10	18.35233	3.3927045	human_frontal_rna
UMB5577_1_UMB5577_2_B3_AD007_rna	1	2	2	14	6.9037886	-10.696567	human_frontal_rna
UMB5577_1_UMB5577_2_B3_AD008_rna	9	10	11	13	2.2230191	7.0558896	human_frontal_rna
UMB5577_1_UMB5577_2_B3_AD010_rna	1	1	3	25	9.526445	-3.870597	human_frontal_rna
UMB5577_1_UMB5577_2_B3_AD012_rna	5	6	8	22	9.972516	14.092865	human_frontal_rna
UMB5577_1_UMB5577_2_B4_AD001_rna	10	11	14	19	-3.738979	-1.5055767	human_frontal_rna
UMB5577_1_UMB5577_2_B4_AD002_rna	10	11	14	19	-0.4831637	-2.3667433	human_frontal_rna
UMB5577_1_UMB5577_2_B4_AD004_rna	8	9	10	37	-4.5601096	-7.320653	human_frontal_rna
UMB5577_1_UMB5577_2_B4_AD006_rna	1	1	3	18	12.115232	-8.8713665	human_frontal_rna
UMB5577_1_UMB5577_2_B4_AD007_rna	5	6	8	22	10.521592	13.936098	human_frontal_rna
UMB5577_1_UMB5577_2_B4_AD008_rna	8	9	10	40	-4.4697895	-5.744451	human_frontal_rna
UMB5577_1_UMB5577_2_B4_AD010_rna	2	1	1	27	10.372772	-5.4277124	human_frontal_rna
UMB5577_1_UMB5577_2_B4_AD012_rna	7	8	9	13	4.14068	7.2547336	human_frontal_rna
UMB5577_1_UMB5577_2_B5_AD001_rna	8	9	10	35	-8.571713	-8.34452	human_frontal_rna
UMB5577_1_UMB5577_2_B5_AD002_rna	1	1	12	17	8.427124	-5.1455345	human_frontal_rna
UMB5577_1_UMB5577_2_B5_AD004_rna	13	14	22	45	-6.8511825	2.8158302	human_frontal_rna
UMB5577_1_UMB5577_2_B5_AD006_rna	2	3	1	5	12.543027	-2.7907946	human_frontal_rna
UMB5577_1_UMB5577_2_B5_AD007_rna	4	5	4	11	-0.8714769	2.574319	human_frontal_rna
UMB5577_1_UMB5577_2_B5_AD010_rna	1	2	12	17	6.2181015	-6.017397	human_frontal_rna
UMB5577_1_UMB5577_2_B5_AD012_rna	1	1	3	7	8.3259735	-7.9640493	human_frontal_rna
UMB5577_1_UMB5577_2_B6_AD001_rna	10	11	14	19	-2.038218	-1.7407751	human_frontal_rna
UMB5577_1_UMB5577_2_B6_AD002_rna	1	2	2	12	7.897086	-9.728116	human_frontal_rna
UMB5577_1_UMB5577_2_B6_AD004_rna	1	2	2	3	6.2917924	-9.24064	human_frontal_rna
UMB5577_1_UMB5577_2_B6_AD007_rna	2	1	3	24	10.776621	-6.6379304	human_frontal_rna
UMB5577_1_UMB5577_2_B6_AD008_rna	6	7	7	29	-1.2665704	-10.820613	human_frontal_rna
UMB5577_1_UMB5577_2_B6_AD010_rna	1	2	3	20	7.708057	-6.711479	human_frontal_rna
UMB5577_1_UMB5577_2_B6_AD012_rna	7	8	9	6	5.368563	5.3012633	human_frontal_rna
UMB5577_1_UMB5577_2_B7_AD001_rna	7	8	9	11	2.6632192	3.5763001	human_frontal_rna
UMB5577_1_UMB5577_2_B7_AD002_rna	2	1	1	27	10.410593	-3.9778495	human_frontal_rna
UMB5577_1_UMB5577_2_B7_AD004_rna	6	7	18	33	-2.4646297	-10.389245	human_frontal_rna
UMB5577_1_UMB5577_2_B7_AD006_rna	6	7	7	50	-0.16294806	-12.324252	human_frontal_rna
UMB5577_1_UMB5577_2_B7_AD007_rna	4	5	4	11	-0.7306952	2.227925	human_frontal_rna
UMB5577_1_UMB5577_2_B7_AD008_rna	16	17	21	43	7.767238	0.24876693	human_frontal_rna
UMB5577_1_UMB5577_2_B7_AD010_rna	1	2	12	17	6.114409	-6.0576863	human_frontal_rna
UMB5577_1_UMB5577_2_B7_AD012_rna	9	10	11	9	-1.5199273	5.4929285	human_frontal_rna
UMB5577_1_UMB5577_2_B8_AD001_rna	4	5	4	21	1.8951889	1.8958323	human_frontal_rna
UMB5577_1_UMB5577_2_B8_AD002_rna	1	2	2	14	6.220503	-9.789692	human_frontal_rna
UMB5577_1_UMB5577_2_B8_AD004_rna	4	5	4	11	-1.2762738	3.0120747	human_frontal_rna
UMB5577_1_UMB5577_2_B8_AD006_rna	1	2	2	3	5.4899445	-9.130221	human_frontal_rna
UMB5577_1_UMB5577_2_B8_AD007_rna	5	6	15	34	8.771698	11.786976	human_frontal_rna
UMB5577_1_UMB5577_2_B8_AD008_rna	7	8	9	13	3.9612126	5.721472	human_frontal_rna
UMB5577_1_UMB5577_2_B8_AD010_rna	2	3	6	4	13.885434	-0.67309535	human_frontal_rna
UMB5577_1_UMB5577_2_B8_AD012_rna	9	10	11	9	-0.06378743	5.991883	human_frontal_rna
UMB5577_1_UMB5577_2_B9_AD001_rna	6	7	7	29	0.000790387	-8.744803	human_frontal_rna
UMB5577_1_UMB5577_2_B9_AD002_rna	1	2	2	20	5.684704	-7.8974514	human_frontal_rna
UMB5577_1_UMB5577_2_B9_AD004_rna	8	9	10	40	-4.2803574	-4.371736	human_frontal_rna
UMB5577_1_UMB5577_2_B9_AD006_rna	8	9	10	40	-4.1162663	-5.797303	human_frontal_rna
UMB5577_1_UMB5577_2_B9_AD008_rna	1	2	2	3	5.699643	-8.875181	human_frontal_rna
UMB5577_1_UMB5577_2_B9_AD010_rna	1	2	12	17	5.9981833	-5.5115957	human_frontal_rna
UMB5577_1_UMB5577_2_B9_AD012_rna	2	1	1	1	11.418727	-5.3917456	human_frontal_rna
UMB5577_1_UMB5577_2_C10_AD001_rna	1	1	17	18	10.461505	-10.371129	human_frontal_rna
UMB5577_1_UMB5577_2_C10_AD002_rna	3	4	5	2	14.375621	7.1913323	human_frontal_rna
UMB5577_1_UMB5577_2_C10_AD004_rna	8	9	10	30	-5.886845	-5.994891	human_frontal_rna
UMB5577_1_UMB5577_2_C10_AD006_rna	8	9	10	40	-4.232142	-4.363258	human_frontal_rna
UMB5577_1_UMB5577_2_C10_AD007_rna	6	7	7	50	-0.39312264	-11.58398	human_frontal_rna
UMB5577_1_UMB5577_2_C10_AD008_rna	1	2	2	14	6.635357	-10.416805	human_frontal_rna
UMB5577_1_UMB5577_2_C10_AD010_rna	9	10	11	9	-1.2509339	6.1389847	human_frontal_rna
UMB5577_1_UMB5577_2_C10_AD012_rna	11	12	6	10	16.360424	4.017843	human_frontal_rna
UMB5577_1_UMB5577_2_C11_AD001_rna	8	9	10	40	-2.526314	-5.834146	human_frontal_rna
UMB5577_1_UMB5577_2_C11_AD002_rna	2	3	1	26	14.487226	-2.3218148	human_frontal_rna
UMB5577_1_UMB5577_2_C11_AD004_rna	9	10	11	9	-1.441168	5.414624	human_frontal_rna
UMB5577_1_UMB5577_2_C11_AD007_rna	4	5	4	15	3.7644596	1.8161391	human_frontal_rna
UMB5577_1_UMB5577_2_C11_AD008_rna	8	9	10	40	-4.814337	-5.423667	human_frontal_rna
UMB5577_1_UMB5577_2_C11_AD010_rna	6	7	18	33	-2.2680118	-10.302457	human_frontal_rna
UMB5577_1_UMB5577_2_C11_AD012_rna	8	9	10	37	-4.263575	-9.618618	human_frontal_rna
UMB5577_1_UMB5577_2_C1_AD001_rna	7	8	9	6	4.864776	3.4835489	human_frontal_rna
UMB5577_1_UMB5577_2_C1_AD002_rna	1	2	2	14	6.5728507	-10.229409	human_frontal_rna
UMB5577_1_UMB5577_2_C1_AD006_rna	2	3	1	1	11.40286	-3.6544192	human_frontal_rna
UMB5577_1_UMB5577_2_C1_AD007_rna	1	2	2	14	6.499073	-9.498749	human_frontal_rna
UMB5577_1_UMB5577_2_C1_AD008_rna	1	2	12	17	5.701855	-4.1949253	human_frontal_rna
UMB5577_1_UMB5577_2_C1_AD010_rna	6	7	18	33	-2.6476188	-7.5678163	human_frontal_rna
UMB5577_1_UMB5577_2_C1_AD012_rna	10	11	14	19	-3.5451388	-1.3721863	human_frontal_rna
UMB5577_1_UMB5577_2_C2_AD001_rna	1	2	3	20	7.5844603	-6.33818	human_frontal_rna
UMB5577_1_UMB5577_2_C2_AD002_rna	4	5	4	15	7.0216646	-3.445246	human_frontal_rna
UMB5577_1_UMB5577_2_C2_AD004_rna	7	8	9	6	5.639178	4.075112	human_frontal_rna
UMB5577_1_UMB5577_2_C2_AD006_rna	10	11	14	19	-3.6243918	-1.6664196	human_frontal_rna
UMB5577_1_UMB5577_2_C2_AD007_rna	8	9	10	40	-4.160856	-5.9749665	human_frontal_rna
UMB5577_1_UMB5577_2_C2_AD008_rna	8	9	10	30	-6.102995	-6.1307006	human_frontal_rna
UMB5577_1_UMB5577_2_C2_AD010_rna	8	9	10	30	-6.4170914	-6.608399	human_frontal_rna
UMB5577_1_UMB5577_2_C3_AD001_rna	7	8	9	6	4.8260827	3.9679246	human_frontal_rna
UMB5577_1_UMB5577_2_C3_AD002_rna	4	5	4	11	0.41143873	2.343622	human_frontal_rna
UMB5577_1_UMB5577_2_C3_AD004_rna	9	10	11	39	-2.6553242	4.214843	human_frontal_rna
UMB5577_1_UMB5577_2_C3_AD006_rna	4	5	4	15	2.8368583	0.865619	human_frontal_rna
UMB5577_1_UMB5577_2_C3_AD007_rna	1	1	3	7	10.207327	-8.067449	human_frontal_rna
UMB5577_1_UMB5577_2_C3_AD008_rna	1	2	12	17	5.9987884	-6.6223025	human_frontal_rna
UMB5577_1_UMB5577_2_C3_AD010_rna	2	3	1	1	12.2606735	-4.511493	human_frontal_rna
UMB5577_1_UMB5577_2_C3_AD012_rna	8	9	10	40	-4.1604385	-5.792513	human_frontal_rna
UMB5577_1_UMB5577_2_C4_AD001_rna	4	5	4	21	1.0683336	-0.43954363	human_frontal_rna
UMB5577_1_UMB5577_2_C4_AD002_rna	4	5	4	11	-0.044462644	1.9531671	human_frontal_rna
UMB5577_1_UMB5577_2_C4_AD004_rna	6	7	18	33	-2.4805036	-10.2972555	human_frontal_rna
UMB5577_1_UMB5577_2_C4_AD006_rna	8	9	10	40	-4.626673	-4.91945	human_frontal_rna
UMB5577_1_UMB5577_2_C4_AD007_rna	1	2	2	14	6.4966626	-8.684519	human_frontal_rna
UMB5577_1_UMB5577_2_C4_AD008_rna	15	16	20	36	-14.763718	-7.545707	human_frontal_rna
UMB5577_1_UMB5577_2_C4_AD010_rna	4	5	4	21	1.499071	1.0174425	human_frontal_rna
UMB5577_1_UMB5577_2_C4_AD012_rna	4	5	4	15	3.008344	1.0004498	human_frontal_rna
UMB5577_1_UMB5577_2_C5_AD001_rna	6	7	7	50	-0.21064946	-12.22745	human_frontal_rna
UMB5577_1_UMB5577_2_C5_AD002_rna	8	9	10	40	-3.7582698	-5.75436	human_frontal_rna
UMB5577_1_UMB5577_2_C5_AD004_rna	6	7	7	23	-0.43758583	-6.2767925	human_frontal_rna
UMB5577_1_UMB5577_2_C5_AD006_rna	2	3	1	5	11.236245	-1.7100089	human_frontal_rna
UMB5577_1_UMB5577_2_C5_AD007_rna	1	2	2	17	6.975903	-6.696649	human_frontal_rna
UMB5577_1_UMB5577_2_C5_AD008_rna	4	5	4	21	1.5608994	1.1742219	human_frontal_rna
UMB5577_1_UMB5577_2_C5_AD010_rna	7	8	9	6	5.562958	4.2074494	human_frontal_rna
UMB5577_1_UMB5577_2_C5_AD012_rna	1	1	3	25	9.30519	-4.2396297	human_frontal_rna
UMB5577_1_UMB5577_2_C6_AD001_rna	6	7	7	23	-0.054568376	-5.203306	human_frontal_rna
UMB5577_1_UMB5577_2_C6_AD002_rna	1	1	3	18	11.337621	-8.104632	human_frontal_rna
UMB5577_1_UMB5577_2_C6_AD006_rna	5	6	8	22	9.259768	14.321351	human_frontal_rna
UMB5577_1_UMB5577_2_C6_AD007_rna	8	9	10	40	-4.1795692	-4.3473763	human_frontal_rna
UMB5577_1_UMB5577_2_C6_AD008_rna	5	6	8	22	8.966049	13.248149	human_frontal_rna
UMB5577_1_UMB5577_2_C7_AD001_rna	6	7	7	50	-0.12560275	-12.346101	human_frontal_rna
UMB5577_1_UMB5577_2_C7_AD002_rna	8	9	10	35	-8.363698	-8.594815	human_frontal_rna
UMB5577_1_UMB5577_2_C7_AD004_rna	3	4	5	2	14.814841	8.044531	human_frontal_rna
UMB5577_1_UMB5577_2_C7_AD006_rna	5	6	8	22	8.984801	12.978853	human_frontal_rna
UMB5577_1_UMB5577_2_C7_AD007_rna	1	2	2	20	6.2700677	-7.740262	human_frontal_rna
UMB5577_1_UMB5577_2_C7_AD008_rna	8	9	10	35	-8.5290365	-8.381999	human_frontal_rna
UMB5577_1_UMB5577_2_C7_AD010_rna	1	1	17	18	10.870781	-10.535146	human_frontal_rna
UMB5577_1_UMB5577_2_C7_AD012_rna	10	11	14	19	-3.6063845	-2.2881742	human_frontal_rna
UMB5577_1_UMB5577_2_C8_AD001_rna	1	1	3	7	9.620636	-7.0928445	human_frontal_rna
UMB5577_1_UMB5577_2_C8_AD002_rna	3	4	5	8	15.893362	9.025072	human_frontal_rna
UMB5577_1_UMB5577_2_C8_AD004_rna	15	16	20	36	-14.471676	-7.315487	human_frontal_rna
UMB5577_1_UMB5577_2_C8_AD006_rna	4	5	4	11	-1.2720263	3.3892105	human_frontal_rna
UMB5577_1_UMB5577_2_C8_AD007_rna	5	6	8	22	8.852286	13.47856	human_frontal_rna
UMB5577_1_UMB5577_2_C8_AD008_rna	10	11	14	19	-2.9547102	-1.5808983	human_frontal_rna
UMB5577_1_UMB5577_2_C8_AD010_rna	1	2	12	17	6.0531235	-4.8017488	human_frontal_rna
UMB5577_1_UMB5577_2_C8_AD012_rna	8	9	10	30	-5.1252055	-5.656703	human_frontal_rna
UMB5577_1_UMB5577_2_C9_AD001_rna	1	1	12	17	7.232049	-4.9383626	human_frontal_rna
UMB5577_1_UMB5577_2_C9_AD002_rna	2	1	1	27	10.449178	-4.172716	human_frontal_rna
UMB5577_1_UMB5577_2_C9_AD004_rna	2	3	6	4	15.060744	-0.6128841	human_frontal_rna
UMB5577_1_UMB5577_2_C9_AD006_rna	6	7	7	32	-0.38604826	-7.310733	human_frontal_rna
UMB5577_1_UMB5577_2_C9_AD008_rna	1	1	1	27	9.469518	-5.631353	human_frontal_rna
UMB5577_1_UMB5577_2_C9_AD010_rna	1	2	2	3	7.879202	-8.247598	human_frontal_rna
UMB5577_1_UMB5577_2_C9_AD012_rna	7	8	9	6	5.6032667	4.768516	human_frontal_rna
UMB5577_1_UMB5577_2_D10_AD001_rna	1	2	2	3	5.950763	-8.60259	human_frontal_rna
UMB5577_1_UMB5577_2_D10_AD002_rna	4	5	4	21	1.6788684	0.12205109	human_frontal_rna
UMB5577_1_UMB5577_2_D10_AD004_rna	3	4	5	2	14.59334	7.517097	human_frontal_rna
UMB5577_1_UMB5577_2_D10_AD006_rna	1	1	17	18	10.930183	-10.763083	human_frontal_rna
UMB5577_1_UMB5577_2_D10_AD007_rna	11	12	6	10	15.864045	4.3065724	human_frontal_rna
UMB5577_1_UMB5577_2_D10_AD008_rna	1	2	2	3	5.7871785	-9.371649	human_frontal_rna
UMB5577_1_UMB5577_2_D10_AD010_rna	3	4	5	2	14.814962	8.9227705	human_frontal_rna
UMB5577_1_UMB5577_2_D10_AD012_rna	6	7	7	50	-0.09935505	-12.296792	human_frontal_rna
UMB5577_1_UMB5577_2_D11_AD002_rna	4	5	4	15	3.5682633	1.6814015	human_frontal_rna
UMB5577_1_UMB5577_2_D11_AD006_rna	2	3	1	5	11.736389	-2.4990735	human_frontal_rna
UMB5577_1_UMB5577_2_D11_AD007_rna	1	1	12	17	8.241853	-5.1959467	human_frontal_rna
UMB5577_1_UMB5577_2_D11_AD008_rna	2	3	1	5	11.983357	-1.5432038	human_frontal_rna
UMB5577_1_UMB5577_2_D11_AD010_rna	8	9	10	35	-6.381476	-8.234173	human_frontal_rna
UMB5577_1_UMB5577_2_D1_AD001_rna	5	6	15	34	7.6253614	11.381719	human_frontal_rna
UMB5577_1_UMB5577_2_D1_AD002_rna	8	9	10	37	-4.466648	-9.248087	human_frontal_rna
UMB5577_1_UMB5577_2_D1_AD006_rna	1	1	3	18	11.974183	-8.541518	human_frontal_rna
UMB5577_1_UMB5577_2_D1_AD007_rna	2	1	1	1	12.060641	-4.6440754	human_frontal_rna
UMB5577_1_UMB5577_2_D1_AD008_rna	3	4	5	8	16.4456	8.96042	human_frontal_rna
UMB5577_1_UMB5577_2_D1_AD010_rna	1	1	17	18	12.02461	-10.081987	human_frontal_rna
UMB5577_1_UMB5577_2_D1_AD012_rna	4	5	4	15	3.7103398	0.7875623	human_frontal_rna
UMB5577_1_UMB5577_2_D2_AD001_rna	5	6	8	22	10.576787	13.6242485	human_frontal_rna
UMB5577_1_UMB5577_2_D2_AD002_rna	5	6	8	22	10.437714	13.317462	human_frontal_rna
UMB5577_1_UMB5577_2_D2_AD004_rna	1	2	2	3	7.362299	-8.344164	human_frontal_rna
UMB5577_1_UMB5577_2_D2_AD006_rna	1	2	12	17	7.260759	-5.9343247	human_frontal_rna
UMB5577_1_UMB5577_2_D2_AD007_rna	8	9	10	35	-8.377291	-8.689036	human_frontal_rna
UMB5577_1_UMB5577_2_D2_AD008_rna	4	5	4	15	3.8161726	0.39324778	human_frontal_rna
UMB5577_1_UMB5577_2_D2_AD010_rna	2	3	6	4	13.029631	-0.6301428	human_frontal_rna
UMB5577_1_UMB5577_2_D2_AD012_rna	5	6	8	22	9.322669	13.405862	human_frontal_rna
UMB5577_1_UMB5577_2_D3_AD001_rna	1	2	12	17	6.221098	-5.4751835	human_frontal_rna
UMB5577_1_UMB5577_2_D3_AD002_rna	3	4	5	2	16.649185	7.440074	human_frontal_rna
UMB5577_1_UMB5577_2_D3_AD006_rna	1	2	2	12	7.4040093	-9.882464	human_frontal_rna
UMB5577_1_UMB5577_2_D3_AD007_rna	1	1	17	18	11.7234	-10.710906	human_frontal_rna
UMB5577_1_UMB5577_2_D3_AD010_rna	8	9	10	35	-8.026631	-8.734189	human_frontal_rna
UMB5577_1_UMB5577_2_D3_AD012_rna	1	1	3	7	9.578802	-7.1771555	human_frontal_rna
UMB5577_1_UMB5577_2_D4_AD001_rna	4	5	4	21	1.0823085	0.96903205	human_frontal_rna
UMB5577_1_UMB5577_2_D4_AD002_rna	1	2	2	12	9.796062	-10.401371	human_frontal_rna
UMB5577_1_UMB5577_2_D4_AD004_rna	11	12	6	10	15.879516	2.8373127	human_frontal_rna
UMB5577_1_UMB5577_2_D4_AD006_rna	3	4	5	41	14.186847	9.817941	human_frontal_rna
UMB5577_1_UMB5577_2_D4_AD007_rna	4	5	4	21	1.6417094	0.13753502	human_frontal_rna
UMB5577_1_UMB5577_2_D4_AD008_rna	1	1	17	18	11.578568	-10.786505	human_frontal_rna
UMB5577_1_UMB5577_2_D4_AD010_rna	2	1	1	27	11.476656	-3.297305	human_frontal_rna
UMB5577_1_UMB5577_2_D4_AD012_rna	4	5	4	11	0.23012707	1.5133239	human_frontal_rna
UMB5577_1_UMB5577_2_D5_AD001_rna	5	6	8	28	7.043333	13.252945	human_frontal_rna
UMB5577_1_UMB5577_2_D5_AD002_rna	1	1	17	18	11.619218	-9.902059	human_frontal_rna
UMB5577_1_UMB5577_2_D5_AD004_rna	1	1	3	25	9.333841	-5.5276475	human_frontal_rna
UMB5577_1_UMB5577_2_D5_AD006_rna	1	2	2	20	6.359642	-7.466426	human_frontal_rna
UMB5577_1_UMB5577_2_D5_AD007_rna	4	5	4	21	1.4784045	1.2509959	human_frontal_rna
UMB5577_1_UMB5577_2_D5_AD008_rna	11	12	6	10	15.422931	4.757268	human_frontal_rna
UMB5577_1_UMB5577_2_D5_AD010_rna	2	3	6	4	14.574995	0.44004452	human_frontal_rna
UMB5577_1_UMB5577_2_D5_AD012_rna	1	2	2	14	6.337883	-9.395988	human_frontal_rna
UMB5577_1_UMB5577_2_D6_AD001_rna	3	4	5	8	16.478155	9.011671	human_frontal_rna
UMB5577_1_UMB5577_2_D6_AD002_rna	5	6	8	28	7.30843	13.95311	human_frontal_rna
UMB5577_1_UMB5577_2_D6_AD004_rna	7	8	9	6	5.7000546	4.498784	human_frontal_rna
UMB5577_1_UMB5577_2_D6_AD006_rna	1	2	2	24	8.171392	-8.414162	human_frontal_rna
UMB5577_1_UMB5577_2_D6_AD007_rna	2	3	1	5	11.08035	-1.7451847	human_frontal_rna
UMB5577_1_UMB5577_2_D6_AD008_rna	3	4	5	2	15.013043	8.218918	human_frontal_rna
UMB5577_1_UMB5577_2_D6_AD012_rna	4	5	4	21	1.6902242	-0.22952436	human_frontal_rna
UMB5577_1_UMB5577_2_D7_AD001_rna	1	2	2	12	7.4203467	-9.667819	human_frontal_rna
UMB5577_1_UMB5577_2_D7_AD002_rna	2	1	1	27	10.894634	-5.2544017	human_frontal_rna
UMB5577_1_UMB5577_2_D7_AD004_rna	2	1	1	27	11.028705	-2.2218616	human_frontal_rna
UMB5577_1_UMB5577_2_D7_AD006_rna	7	8	9	13	4.5400853	5.5417633	human_frontal_rna
UMB5577_1_UMB5577_2_D7_AD007_rna	1	2	2	14	6.159494	-10.250894	human_frontal_rna
UMB5577_1_UMB5577_2_D7_AD008_rna	10	11	14	19	-3.2267425	-1.5148227	human_frontal_rna
UMB5577_1_UMB5577_2_D7_AD010_rna	11	12	6	10	17.91535	3.2784293	human_frontal_rna
UMB5577_1_UMB5577_2_D7_AD012_rna	1	2	12	17	6.9075565	-5.01559	human_frontal_rna
UMB5577_1_UMB5577_2_D8_AD001_rna	1	2	12	17	5.860089	-6.770038	human_frontal_rna
UMB5577_1_UMB5577_2_D8_AD002_rna	2	1	1	27	10.564029	-4.4858446	human_frontal_rna
UMB5577_1_UMB5577_2_D8_AD004_rna	11	12	6	10	15.775482	2.4524007	human_frontal_rna
UMB5577_1_UMB5577_2_D8_AD006_rna	10	11	14	19	-3.1658251	-1.5087031	human_frontal_rna
UMB5577_1_UMB5577_2_D8_AD008_rna	3	4	5	8	16.088549	9.0858345	human_frontal_rna
UMB5577_1_UMB5577_2_D8_AD010_rna	2	1	1	27	10.335927	-4.2410383	human_frontal_rna
UMB5577_1_UMB5577_2_D8_AD012_rna	1	1	17	18	11.789258	-10.710498	human_frontal_rna
UMB5577_1_UMB5577_2_D9_AD001_rna	6	7	7	50	-0.2884228	-12.302238	human_frontal_rna
UMB5577_1_UMB5577_2_D9_AD004_rna	4	5	4	11	0.19039302	3.4623835	human_frontal_rna
UMB5577_1_UMB5577_2_D9_AD006_rna	12	13	13	16	20.238728	0.3148434	human_frontal_rna
UMB5577_1_UMB5577_2_D9_AD007_rna	4	5	4	21	0.82995915	-0.06750627	human_frontal_rna
UMB5577_1_UMB5577_2_D9_AD008_rna	6	7	7	29	-0.57743627	-10.912461	human_frontal_rna
UMB5577_1_UMB5577_2_D9_AD010_rna	1	2	12	17	6.664018	-5.8644147	human_frontal_rna
UMB5577_1_UMB5577_2_D9_AD012_rna	1	1	3	7	10.394244	-6.9917145	human_frontal_rna
UMB5577_1_UMB5577_2_E10_AD001_rna	15	16	20	36	-14.715562	-7.709284	human_frontal_rna
UMB5577_1_UMB5577_2_E10_AD002_rna	4	5	4	21	1.9226425	-0.2311363	human_frontal_rna
UMB5577_1_UMB5577_2_E10_AD006_rna	2	3	1	26	12.728881	-1.8337764	human_frontal_rna
UMB5577_1_UMB5577_2_E10_AD007_rna	2	1	3	24	10.654508	-6.034546	human_frontal_rna
UMB5577_1_UMB5577_2_E10_AD008_rna	2	1	1	27	10.009028	-4.151926	human_frontal_rna
UMB5577_1_UMB5577_2_E10_AD010_rna	4	5	4	11	-1.1325905	3.3132992	human_frontal_rna
UMB5577_1_UMB5577_2_E10_AD012_rna	8	9	10	30	-6.275253	-6.46422	human_frontal_rna
UMB5577_1_UMB5577_2_E11_AD001_rna	1	2	2	12	8.125131	-10.863041	human_frontal_rna
UMB5577_1_UMB5577_2_E11_AD002_rna	2	3	6	4	13.981997	-1.2948451	human_frontal_rna
UMB5577_1_UMB5577_2_E11_AD004_rna	4	5	4	11	-0.5791635	2.3993127	human_frontal_rna
UMB5577_1_UMB5577_2_E11_AD006_rna	11	12	6	10	18.233418	3.2379405	human_frontal_rna
UMB5577_1_UMB5577_2_E11_AD007_rna	4	5	4	11	-1.3156717	3.0276332	human_frontal_rna
UMB5577_1_UMB5577_2_E11_AD008_rna	6	7	18	33	-2.8599474	-8.411206	human_frontal_rna
UMB5577_1_UMB5577_2_E11_AD010_rna	8	9	10	35	-6.5290966	-8.372615	human_frontal_rna
UMB5577_1_UMB5577_2_E1_AD001_rna	3	4	5	8	16.11336	8.276654	human_frontal_rna
UMB5577_1_UMB5577_2_E1_AD002_rna	8	9	10	40	-4.7306533	-4.905829	human_frontal_rna
UMB5577_1_UMB5577_2_E1_AD004_rna	3	4	5	2	14.413202	7.8567343	human_frontal_rna
UMB5577_1_UMB5577_2_E1_AD007_rna	1	2	2	14	6.314644	-9.140465	human_frontal_rna
UMB5577_1_UMB5577_2_E1_AD008_rna	10	11	14	19	-3.6597908	-1.5497378	human_frontal_rna
UMB5577_1_UMB5577_2_E1_AD010_rna	1	2	2	12	9.412779	-10.351482	human_frontal_rna
UMB5577_1_UMB5577_2_E1_AD012_rna	2	1	1	1	12.537731	-5.8734756	human_frontal_rna
UMB5577_1_UMB5577_2_E2_AD001_rna	1	1	12	17	7.663889	-4.6213317	human_frontal_rna
UMB5577_1_UMB5577_2_E2_AD002_rna	6	7	7	23	-0.9545567	-7.0507045	human_frontal_rna
UMB5577_1_UMB5577_2_E2_AD004_rna	1	2	2	12	7.8110642	-11.185051	human_frontal_rna
UMB5577_1_UMB5577_2_E2_AD006_rna	7	8	9	13	3.4183478	5.503338	human_frontal_rna
UMB5577_1_UMB5577_2_E2_AD007_rna	6	7	7	29	-1.4090791	-10.26514	human_frontal_rna
UMB5577_1_UMB5577_2_E2_AD008_rna	1	2	2	3	7.5389686	-7.9442225	human_frontal_rna
UMB5577_1_UMB5577_2_E2_AD010_rna	2	3	1	5	11.397902	-2.4446278	human_frontal_rna
UMB5577_1_UMB5577_2_E2_AD012_rna	1	2	2	12	8.546407	-9.07279	human_frontal_rna
UMB5577_1_UMB5577_2_E3_AD001_rna	15	16	20	36	-14.348807	-7.34615	human_frontal_rna
UMB5577_1_UMB5577_2_E3_AD002_rna	8	9	10	37	-4.6552606	-9.715106	human_frontal_rna
UMB5577_1_UMB5577_2_E3_AD004_rna	9	10	11	9	-1.3193502	6.2643504	human_frontal_rna
UMB5577_1_UMB5577_2_E3_AD007_rna	8	9	10	40	7.6552725	-4.1933093	human_frontal_rna
UMB5577_1_UMB5577_2_E3_AD008_rna	5	6	8	22	9.901886	13.617451	human_frontal_rna
UMB5577_1_UMB5577_2_E3_AD010_rna	1	1	17	18	11.478389	-9.778168	human_frontal_rna
UMB5577_1_UMB5577_2_E3_AD012_rna	1	1	3	7	10.357235	-7.8654947	human_frontal_rna
UMB5577_1_UMB5577_2_E4_AD001_rna	1	1	17	18	11.750374	-10.204124	human_frontal_rna
UMB5577_1_UMB5577_2_E4_AD004_rna	15	16	20	36	-14.954531	-6.911664	human_frontal_rna
UMB5577_1_UMB5577_2_E4_AD006_rna	13	14	22	45	-6.849083	2.8436735	human_frontal_rna
UMB5577_1_UMB5577_2_E4_AD007_rna	15	16	20	36	-14.969131	-7.536873	human_frontal_rna
UMB5577_1_UMB5577_2_E4_AD008_rna	1	2	2	3	6.9820523	-7.989585	human_frontal_rna
UMB5577_1_UMB5577_2_E4_AD010_rna	4	5	4	15	7.440047	-3.680504	human_frontal_rna
UMB5577_1_UMB5577_2_E5_AD001_rna	8	9	10	30	-6.439499	-6.8481164	human_frontal_rna
UMB5577_1_UMB5577_2_E5_AD002_rna	4	5	4	11	-0.5933758	2.0824351	human_frontal_rna
UMB5577_1_UMB5577_2_E5_AD004_rna	3	4	5	2	15.221113	8.387573	human_frontal_rna
UMB5577_1_UMB5577_2_E5_AD006_rna	9	10	11	9	0.044011716	7.011883	human_frontal_rna
UMB5577_1_UMB5577_2_E5_AD007_rna	6	7	18	33	-2.857818	-8.220989	human_frontal_rna
UMB5577_1_UMB5577_2_E5_AD008_rna	5	6	15	34	7.6324058	11.811747	human_frontal_rna
UMB5577_1_UMB5577_2_E5_AD010_rna	15	16	20	36	-14.0641985	-6.925054	human_frontal_rna
UMB5577_1_UMB5577_2_E5_AD012_rna	9	10	11	39	-2.4043944	3.8041265	human_frontal_rna
UMB5577_1_UMB5577_2_E6_AD001_rna	4	5	4	11	0.7491626	2.4711754	human_frontal_rna
UMB5577_1_UMB5577_2_E6_AD002_rna	9	10	11	9	0.1836205	7.2468414	human_frontal_rna
UMB5577_1_UMB5577_2_E6_AD006_rna	1	1	3	25	9.393175	-5.5421796	human_frontal_rna
UMB5577_1_UMB5577_2_E6_AD007_rna	1	2	2	12	8.14286	-11.281006	human_frontal_rna
UMB5577_1_UMB5577_2_E6_AD008_rna	5	6	8	22	8.5219555	13.223654	human_frontal_rna
UMB5577_1_UMB5577_2_E6_AD010_rna	4	5	4	15	3.180935	1.094962	human_frontal_rna
UMB5577_1_UMB5577_2_E6_AD012_rna	10	11	12	31	5.102198	-3.3466315	human_frontal_rna
UMB5577_1_UMB5577_2_E7_AD001_rna	3	4	5	2	14.50562	8.148385	human_frontal_rna
UMB5577_1_UMB5577_2_E7_AD002_rna	10	11	14	19	-3.160948	-1.5150949	human_frontal_rna
UMB5577_1_UMB5577_2_E7_AD006_rna	12	13	13	16	21.263876	-0.08254973	human_frontal_rna
UMB5577_1_UMB5577_2_E7_AD007_rna	4	5	4	21	2.0750601	0.3710766	human_frontal_rna
UMB5577_1_UMB5577_2_E7_AD008_rna	9	10	11	39	-2.1545043	3.797052	human_frontal_rna
UMB5577_1_UMB5577_2_E7_AD010_rna	1	1	3	7	9.657467	-6.620663	human_frontal_rna
UMB5577_1_UMB5577_2_E7_AD012_rna	1	2	12	17	6.2838287	-6.2978606	human_frontal_rna
UMB5577_1_UMB5577_2_E8_AD002_rna	2	1	1	27	10.848962	-6.2874427	human_frontal_rna
UMB5577_1_UMB5577_2_E8_AD004_rna	4	5	4	21	0.9852903	-0.072979026	human_frontal_rna
UMB5577_1_UMB5577_2_E8_AD006_rna	1	2	2	12	8.59747	-10.997283	human_frontal_rna
UMB5577_1_UMB5577_2_E8_AD007_rna	1	2	3	20	7.790575	-7.087109	human_frontal_rna
UMB5577_1_UMB5577_2_E8_AD008_rna	1	2	2	14	6.1393986	-9.729685	human_frontal_rna
UMB5577_1_UMB5577_2_E8_AD010_rna	6	7	7	23	-0.57005227	-6.4748087	human_frontal_rna
UMB5577_1_UMB5577_2_E8_AD012_rna	4	5	4	11	0.049927115	2.6286418	human_frontal_rna
UMB5577_1_UMB5577_2_E9_AD001_rna	6	7	18	33	-2.9388077	-7.781966	human_frontal_rna
UMB5577_1_UMB5577_2_E9_AD002_rna	6	7	7	32	0.48728776	-7.1501913	human_frontal_rna
UMB5577_1_UMB5577_2_E9_AD004_rna	2	3	6	4	14.235615	-0.25830585	human_frontal_rna
UMB5577_1_UMB5577_2_E9_AD006_rna	1	1	17	18	11.549222	-9.847244	human_frontal_rna
UMB5577_1_UMB5577_2_E9_AD007_rna	1	2	2	14	6.792027	-10.74114	human_frontal_rna
UMB5577_1_UMB5577_2_E9_AD008_rna	1	2	12	17	5.939011	-4.711071	human_frontal_rna
UMB5577_1_UMB5577_2_E9_AD010_rna	1	2	12	17	6.6046157	-5.0390573	human_frontal_rna
UMB5577_1_UMB5577_2_F10_AD001_rna	5	6	8	22	10.269544	14.83728	human_frontal_rna
UMB5577_1_UMB5577_2_F10_AD002_rna	2	1	1	27	10.626321	-5.012439	human_frontal_rna
UMB5577_1_UMB5577_2_F10_AD004_rna	2	3	1	5	11.684727	-2.0447166	human_frontal_rna
UMB5577_1_UMB5577_2_F10_AD006_rna	12	13	13	16	21.197449	-1.3687544	human_frontal_rna
UMB5577_1_UMB5577_2_F10_AD007_rna	1	2	2	12	9.086517	-10.062315	human_frontal_rna
UMB5577_1_UMB5577_2_F10_AD010_rna	1	1	3	7	9.721623	-7.8247867	human_frontal_rna
UMB5577_1_UMB5577_2_F10_AD012_rna	1	2	2	14	6.878713	-10.723634	human_frontal_rna
UMB5577_1_UMB5577_2_F11_AD001_rna	2	3	1	5	11.154248	-1.5111834	human_frontal_rna
UMB5577_1_UMB5577_2_F11_AD002_rna	3	4	5	8	16.906576	9.208908	human_frontal_rna
UMB5577_1_UMB5577_2_F11_AD004_rna	1	1	3	17	9.247664	-5.903719	human_frontal_rna
UMB5577_1_UMB5577_2_F11_AD006_rna	1	1	12	17	8.444628	-4.551574	human_frontal_rna
UMB5577_1_UMB5577_2_F11_AD007_rna	11	12	6	10	17.196434	3.9238307	human_frontal_rna
UMB5577_1_UMB5577_2_F11_AD008_rna	6	7	7	29	-0.27964032	-9.226105	human_frontal_rna
UMB5577_1_UMB5577_2_F11_AD010_rna	5	6	8	22	9.752426	14.237126	human_frontal_rna
UMB5577_1_UMB5577_2_F11_AD012_rna	7	8	9	6	4.899921	2.9508564	human_frontal_rna
UMB5577_1_UMB5577_2_F1_AD001_rna	5	6	8	38	10.704494	14.804441	human_frontal_rna
UMB5577_1_UMB5577_2_F1_AD002_rna	3	4	5	2	15.138278	8.837046	human_frontal_rna
UMB5577_1_UMB5577_2_F1_AD004_rna	7	8	9	6	3.6227496	4.959617	human_frontal_rna
UMB5577_1_UMB5577_2_F1_AD006_rna	1	2	3	20	7.5369754	-6.7252283	human_frontal_rna
UMB5577_1_UMB5577_2_F1_AD007_rna	13	14	22	45	-6.8784785	2.903404	human_frontal_rna
UMB5577_1_UMB5577_2_F1_AD008_rna	11	12	6	10	17.86497	3.0081248	human_frontal_rna
UMB5577_1_UMB5577_2_F1_AD010_rna	2	1	1	27	10.118698	-4.5386677	human_frontal_rna
UMB5577_1_UMB5577_2_F1_AD012_rna	4	5	4	21	2.03789	-0.23574406	human_frontal_rna
UMB5577_1_UMB5577_2_F2_AD001_rna	4	5	4	11	-0.21627064	2.7733803	human_frontal_rna
UMB5577_1_UMB5577_2_F2_AD002_rna	8	9	10	35	-6.728848	-8.354818	human_frontal_rna
UMB5577_1_UMB5577_2_F2_AD004_rna	1	2	2	3	5.5835238	-8.893016	human_frontal_rna
UMB5577_1_UMB5577_2_F2_AD006_rna	6	7	7	32	0.66821915	-7.2175727	human_frontal_rna
UMB5577_1_UMB5577_2_F2_AD007_rna	4	5	4	21	1.212031	0.814296	human_frontal_rna
UMB5577_1_UMB5577_2_F2_AD008_rna	5	6	8	22	10.311947	14.236143	human_frontal_rna
UMB5577_1_UMB5577_2_F2_AD012_rna	8	9	10	37	-4.8855267	-9.160004	human_frontal_rna
UMB5577_1_UMB5577_2_F3_AD002_rna	3	4	5	8	15.809185	9.0948105	human_frontal_rna
UMB5577_1_UMB5577_2_F3_AD004_rna	1	2	2	14	5.818068	-9.712187	human_frontal_rna
UMB5577_1_UMB5577_2_F3_AD006_rna	1	1	3	18	10.457764	-9.127525	human_frontal_rna
UMB5577_1_UMB5577_2_F3_AD008_rna	1	1	3	25	9.66991	-3.5830305	human_frontal_rna
UMB5577_1_UMB5577_2_F3_AD010_rna	3	4	5	8	16.67792	9.251632	human_frontal_rna
UMB5577_1_UMB5577_2_F3_AD012_rna	1	2	2	14	7.2922053	-9.617791	human_frontal_rna
UMB5577_1_UMB5577_2_F4_AD001_rna	1	2	2	14	6.7211947	-9.736089	human_frontal_rna
UMB5577_1_UMB5577_2_F4_AD002_rna	8	9	10	40	-4.245286	-4.318797	human_frontal_rna
UMB5577_1_UMB5577_2_F4_AD004_rna	8	9	10	37	-3.9903765	-9.723687	human_frontal_rna
UMB5577_1_UMB5577_2_F4_AD006_rna	14	15	16	47	-12.965979	2.0957582	human_frontal_rna
UMB5577_1_UMB5577_2_F4_AD007_rna	11	12	6	10	16.681376	2.6337733	human_frontal_rna
UMB5577_1_UMB5577_2_F4_AD008_rna	1	2	12	17	6.184499	-5.947614	human_frontal_rna
UMB5577_1_UMB5577_2_F4_AD010_rna	9	10	11	9	-0.007079048	5.312888	human_frontal_rna
UMB5577_1_UMB5577_2_F4_AD012_rna	3	4	5	8	15.700571	9.205265	human_frontal_rna
UMB5577_1_UMB5577_2_F5_AD001_rna	1	1	12	17	8.158802	-4.7307305	human_frontal_rna
UMB5577_1_UMB5577_2_F5_AD002_rna	7	8	9	6	4.949737	5.1973643	human_frontal_rna
UMB5577_1_UMB5577_2_F5_AD004_rna	6	7	7	29	-0.40970856	-10.3778305	human_frontal_rna
UMB5577_1_UMB5577_2_F5_AD006_rna	8	9	10	40	-4.332765	-4.468391	human_frontal_rna
UMB5577_1_UMB5577_2_F5_AD007_rna	1	1	3	7	8.765496	-7.5471277	human_frontal_rna
UMB5577_1_UMB5577_2_F5_AD008_rna	4	5	4	11	-1.1400076	2.8409429	human_frontal_rna
UMB5577_1_UMB5577_2_F5_AD010_rna	1	2	12	17	6.3223248	-5.659422	human_frontal_rna
UMB5577_1_UMB5577_2_F5_AD012_rna	3	4	13	41	12.894455	10.582343	human_frontal_rna
UMB5577_1_UMB5577_2_F6_AD001_rna	1	2	2	12	9.158986	-10.660151	human_frontal_rna
UMB5577_1_UMB5577_2_F6_AD002_rna	1	1	17	18	11.2281	-10.793611	human_frontal_rna
UMB5577_1_UMB5577_2_F6_AD006_rna	1	2	12	17	5.898182	-6.2834706	human_frontal_rna
UMB5577_1_UMB5577_2_F6_AD007_rna	10	11	14	19	-2.138467	-1.508885	human_frontal_rna
UMB5577_1_UMB5577_2_F6_AD008_rna	2	3	6	4	14.358202	0.6304368	human_frontal_rna
UMB5577_1_UMB5577_2_F6_AD010_rna	2	1	1	27	11.018151	-4.0440626	human_frontal_rna
UMB5577_1_UMB5577_2_F6_AD012_rna	6	7	7	32	1.2333647	-7.8288045	human_frontal_rna
UMB5577_1_UMB5577_2_F7_AD001_rna	2	3	6	4	14.093239	1.159058	human_frontal_rna
UMB5577_1_UMB5577_2_F7_AD002_rna	4	5	4	11	0.42122653	2.5350854	human_frontal_rna
UMB5577_1_UMB5577_2_F7_AD004_rna	1	2	2	3	6.1706986	-8.517059	human_frontal_rna
UMB5577_1_UMB5577_2_F7_AD006_rna	5	6	15	34	8.655224	11.801879	human_frontal_rna
UMB5577_1_UMB5577_2_F7_AD007_rna	15	16	20	36	-14.962154	-7.5132895	human_frontal_rna
UMB5577_1_UMB5577_2_F7_AD008_rna	1	1	3	18	12.052346	-8.515974	human_frontal_rna
UMB5577_1_UMB5577_2_F7_AD010_rna	1	2	3	20	7.879557	-7.0955434	human_frontal_rna
UMB5577_1_UMB5577_2_F7_AD012_rna	1	1	3	7	8.837681	-7.2373433	human_frontal_rna
UMB5577_1_UMB5577_2_F8_AD001_rna	1	2	2	12	8.683571	-10.833464	human_frontal_rna
UMB5577_1_UMB5577_2_F8_AD002_rna	8	9	10	30	-6.397239	-6.255683	human_frontal_rna
UMB5577_1_UMB5577_2_F8_AD004_rna	1	1	17	18	11.233963	-11.017131	human_frontal_rna
UMB5577_1_UMB5577_2_F8_AD006_rna	1	1	17	18	11.41153	-9.474645	human_frontal_rna
UMB5577_1_UMB5577_2_F8_AD007_rna	1	1	3	25	9.7201805	-5.453601	human_frontal_rna
UMB5577_1_UMB5577_2_F8_AD010_rna	2	1	1	27	11.163335	-4.332868	human_frontal_rna
UMB5577_1_UMB5577_2_F8_AD012_rna	2	1	3	7	10.244054	-6.381931	human_frontal_rna
UMB5577_1_UMB5577_2_F9_AD001_rna	2	1	3	27	10.0404415	-5.229815	human_frontal_rna
UMB5577_1_UMB5577_2_F9_AD002_rna	9	10	11	39	-2.5058944	4.168263	human_frontal_rna
UMB5577_1_UMB5577_2_F9_AD004_rna	7	8	9	6	5.042409	3.1622794	human_frontal_rna
UMB5577_1_UMB5577_2_F9_AD006_rna	5	6	8	22	9.066338	14.087143	human_frontal_rna
UMB5577_1_UMB5577_2_F9_AD007_rna	1	2	3	20	7.984718	-6.640844	human_frontal_rna
UMB5577_1_UMB5577_2_F9_AD008_rna	9	10	11	9	-0.3764765	6.114557	human_frontal_rna
UMB5577_1_UMB5577_2_F9_AD010_rna	7	8	9	13	4.8127656	5.9532666	human_frontal_rna
UMB5577_1_UMB5577_2_F9_AD012_rna	3	4	5	2	14.894026	7.757952	human_frontal_rna
UMB5577_1_UMB5577_2_G10_AD001_rna	1	1	3	18	11.079965	-8.075678	human_frontal_rna
UMB5577_1_UMB5577_2_G10_AD002_rna	8	9	10	37	-4.797469	-7.0954533	human_frontal_rna
UMB5577_1_UMB5577_2_G10_AD004_rna	6	7	18	33	-2.8777018	-9.410757	human_frontal_rna
UMB5577_1_UMB5577_2_G10_AD006_rna	6	7	7	29	-1.6149577	-10.498552	human_frontal_rna
UMB5577_1_UMB5577_2_G10_AD007_rna	1	1	3	7	9.327073	-7.0223956	human_frontal_rna
UMB5577_1_UMB5577_2_G10_AD008_rna	6	7	7	23	-1.0584297	-7.0779223	human_frontal_rna
UMB5577_1_UMB5577_2_G10_AD010_rna	6	7	7	23	-2.2968593	-6.431899	human_frontal_rna
UMB5577_1_UMB5577_2_G10_AD012_rna	6	7	7	23	-0.0264368	-4.6256313	human_frontal_rna
UMB5577_1_UMB5577_2_G11_AD001_rna	10	11	14	19	-3.0062194	-1.4431592	human_frontal_rna
UMB5577_1_UMB5577_2_G11_AD002_rna	2	1	1	27	10.1222725	-3.8763309	human_frontal_rna
UMB5577_1_UMB5577_2_G11_AD004_rna	8	9	10	35	-8.600228	-8.3698015	human_frontal_rna
UMB5577_1_UMB5577_2_G11_AD007_rna	2	3	1	1	11.769567	-4.633658	human_frontal_rna
UMB5577_1_UMB5577_2_G11_AD008_rna	6	7	7	32	1.1364052	-7.3130326	human_frontal_rna
UMB5577_1_UMB5577_2_G11_AD010_rna	13	14	22	45	-7.128596	3.2625487	human_frontal_rna
UMB5577_1_UMB5577_2_G11_AD012_rna	1	1	17	18	11.16792	-10.937197	human_frontal_rna
UMB5577_1_UMB5577_2_G1_AD001_rna	2	3	1	1	11.634489	-3.486661	human_frontal_rna
UMB5577_1_UMB5577_2_G1_AD002_rna	1	1	3	18	10.919673	-8.3686495	human_frontal_rna
UMB5577_1_UMB5577_2_G1_AD004_rna	2	3	1	5	12.129628	-2.675801	human_frontal_rna
UMB5577_1_UMB5577_2_G1_AD006_rna	8	9	10	40	-4.069421	-5.8909197	human_frontal_rna
UMB5577_1_UMB5577_2_G1_AD007_rna	11	12	6	10	16.591995	3.8195834	human_frontal_rna
UMB5577_1_UMB5577_2_G1_AD008_rna	1	2	2	3	5.483812	-7.5320163	human_frontal_rna
UMB5577_1_UMB5577_2_G1_AD010_rna	6	7	18	33	-2.6789014	-7.824301	human_frontal_rna
UMB5577_1_UMB5577_2_G1_AD012_rna	4	5	4	11	0.61989766	2.2864897	human_frontal_rna
UMB5577_1_UMB5577_2_G2_AD001_rna	1	2	2	20	7.595303	-7.442407	human_frontal_rna
UMB5577_1_UMB5577_2_G2_AD002_rna	8	9	10	30	-5.984696	-6.050741	human_frontal_rna
UMB5577_1_UMB5577_2_G2_AD007_rna	8	9	10	35	-6.211479	-8.302228	human_frontal_rna
UMB5577_1_UMB5577_2_G2_AD008_rna	8	9	10	30	-4.9728203	-5.381341	human_frontal_rna
UMB5577_1_UMB5577_2_G2_AD010_rna	15	16	20	36	-14.743331	-7.297535	human_frontal_rna
UMB5577_1_UMB5577_2_G2_AD012_rna	3	4	13	41	12.914715	10.534768	human_frontal_rna
UMB5577_1_UMB5577_2_G3_AD001_rna	2	3	6	27	12.652576	-0.52540326	human_frontal_rna
UMB5577_1_UMB5577_2_G3_AD002_rna	4	5	4	21	1.9974495	-0.06779193	human_frontal_rna
UMB5577_1_UMB5577_2_G3_AD004_rna	2	3	6	4	13.834969	0.7354078	human_frontal_rna
UMB5577_1_UMB5577_2_G3_AD006_rna	1	2	3	20	7.5094333	-7.0286064	human_frontal_rna
UMB5577_1_UMB5577_2_G3_AD007_rna	3	4	13	41	13.052459	10.478444	human_frontal_rna
UMB5577_1_UMB5577_2_G3_AD008_rna	3	4	5	2	15.218345	8.117047	human_frontal_rna
UMB5577_1_UMB5577_2_G3_AD010_rna	6	7	7	23	-0.20835787	-4.2612543	human_frontal_rna
UMB5577_1_UMB5577_2_G3_AD012_rna	1	2	2	12	8.10167	-9.691583	human_frontal_rna
UMB5577_1_UMB5577_2_G4_AD006_rna	1	1	17	18	11.906944	-10.660098	human_frontal_rna
UMB5577_1_UMB5577_2_G4_AD007_rna	1	2	12	17	6.3769445	-5.534721	human_frontal_rna
UMB5577_1_UMB5577_2_G4_AD008_rna	9	10	11	9	-0.11515657	5.9513373	human_frontal_rna
UMB5577_1_UMB5577_2_G4_AD010_rna	11	12	6	10	15.067437	3.4016893	human_frontal_rna
UMB5577_1_UMB5577_2_G4_AD012_rna	6	7	18	33	-3.0063338	-9.941906	human_frontal_rna
UMB5577_1_UMB5577_2_G5_AD001_rna	1	2	2	20	5.9701858	-6.9280796	human_frontal_rna
UMB5577_1_UMB5577_2_G5_AD002_rna	1	2	2	14	6.146255	-9.351066	human_frontal_rna
UMB5577_1_UMB5577_2_G5_AD004_rna	1	2	12	17	6.2724648	-6.03822	human_frontal_rna
UMB5577_1_UMB5577_2_G5_AD006_rna	8	9	10	40	-4.307998	-4.341439	human_frontal_rna
UMB5577_1_UMB5577_2_G5_AD007_rna	1	2	3	7	8.392045	-7.174087	human_frontal_rna
UMB5577_1_UMB5577_2_G5_AD008_rna	8	9	10	35	-7.709107	-8.509089	human_frontal_rna
UMB5577_1_UMB5577_2_G5_AD010_rna	5	6	15	34	7.7167053	12.231466	human_frontal_rna
UMB5577_1_UMB5577_2_G5_AD012_rna	1	1	3	25	9.067323	-4.5009336	human_frontal_rna
UMB5577_1_UMB5577_2_G6_AD002_rna	10	11	14	19	-2.1096294	-1.7319779	human_frontal_rna
UMB5577_1_UMB5577_2_G6_AD004_rna	1	2	2	12	8.805	-10.063721	human_frontal_rna
UMB5577_1_UMB5577_2_G6_AD006_rna	13	14	22	45	-7.0770802	2.939403	human_frontal_rna
UMB5577_1_UMB5577_2_G6_AD007_rna	9	10	11	39	-1.9889022	3.992639	human_frontal_rna
UMB5577_1_UMB5577_2_G6_AD008_rna	3	4	5	8	14.736737	9.78694	human_frontal_rna
UMB5577_1_UMB5577_2_G6_AD010_rna	1	2	2	20	6.892144	-7.2334723	human_frontal_rna
UMB5577_1_UMB5577_2_G7_AD001_rna	7	8	9	13	3.616991	6.923033	human_frontal_rna
UMB5577_1_UMB5577_2_G7_AD002_rna	2	3	6	4	13.695688	0.50259995	human_frontal_rna
UMB5577_1_UMB5577_2_G7_AD004_rna	7	8	9	13	3.580471	5.967282	human_frontal_rna
UMB5577_1_UMB5577_2_G7_AD006_rna	2	3	1	26	14.668117	-2.5275154	human_frontal_rna
UMB5577_1_UMB5577_2_G7_AD007_rna	6	7	7	32	1.0482074	-8.187053	human_frontal_rna
UMB5577_1_UMB5577_2_G7_AD008_rna	1	1	17	18	12.045726	-10.586596	human_frontal_rna
UMB5577_1_UMB5577_2_G7_AD010_rna	10	11	14	19	-3.6689012	-1.7165939	human_frontal_rna
UMB5577_1_UMB5577_2_G7_AD012_rna	6	7	7	29	-0.7472817	-9.390672	human_frontal_rna
UMB5577_1_UMB5577_2_G8_AD001_rna	8	9	10	35	-7.8336163	-8.520256	human_frontal_rna
UMB5577_1_UMB5577_2_G8_AD002_rna	4	5	4	15	3.5754387	1.8358063	human_frontal_rna
UMB5577_1_UMB5577_2_G8_AD004_rna	9	10	11	39	-2.4673562	4.0845394	human_frontal_rna
UMB5577_1_UMB5577_2_G8_AD006_rna	1	2	2	12	8.056139	-9.493225	human_frontal_rna
UMB5577_1_UMB5577_2_G8_AD010_rna	6	7	18	33	-2.93289	-7.939199	human_frontal_rna
UMB5577_1_UMB5577_2_G8_AD012_rna	7	8	9	6	4.8890114	3.7648497	human_frontal_rna
UMB5577_1_UMB5577_2_G9_AD001_rna	6	7	7	23	-1.2169755	-6.941139	human_frontal_rna
UMB5577_1_UMB5577_2_G9_AD002_rna	1	1	3	7	8.959456	-8.041313	human_frontal_rna
UMB5577_1_UMB5577_2_G9_AD004_rna	3	4	13	41	13.748838	10.109875	human_frontal_rna
UMB5577_1_UMB5577_2_G9_AD006_rna	1	2	2	20	7.822118	-7.963068	human_frontal_rna
UMB5577_1_UMB5577_2_G9_AD007_rna	6	7	18	33	-2.7260978	-7.699087	human_frontal_rna
UMB5577_1_UMB5577_2_G9_AD008_rna	1	1	12	17	8.1845	-4.86337	human_frontal_rna
UMB5577_1_UMB5577_2_G9_AD010_rna	1	2	2	14	6.4587107	-8.695459	human_frontal_rna
UMB5577_1_UMB5577_2_G9_AD012_rna	4	5	4	11	1.9919401	2.8867238	human_frontal_rna
UMB5577_1_UMB5577_2_H10_AD001_rna	7	8	9	13	3.3471434	5.9480224	human_frontal_rna
UMB5577_1_UMB5577_2_H10_AD002_rna	2	1	1	27	10.752112	-4.242881	human_frontal_rna
UMB5577_1_UMB5577_2_H10_AD004_rna	2	3	1	1	13.619237	-4.2848353	human_frontal_rna
UMB5577_1_UMB5577_2_H10_AD006_rna	1	1	3	7	10.193233	-6.319474	human_frontal_rna
UMB5577_1_UMB5577_2_H10_AD008_rna	5	6	8	28	8.033498	12.909537	human_frontal_rna
UMB5577_1_UMB5577_2_H10_AD012_rna	9	10	11	9	-1.4953307	6.146878	human_frontal_rna
UMB5577_1_UMB5577_2_H11_AD001_rna	7	8	9	13	3.8113017	7.4945536	human_frontal_rna
UMB5577_1_UMB5577_2_H11_AD002_rna	11	12	6	10	15.665953	2.154138	human_frontal_rna
UMB5577_1_UMB5577_2_H11_AD004_rna	4	5	4	15	3.8378243	0.5841518	human_frontal_rna
UMB5577_1_UMB5577_2_H11_AD006_rna	1	1	3	25	9.11674	-4.41764	human_frontal_rna
UMB5577_1_UMB5577_2_H11_AD007_rna	9	10	11	39	-2.4095159	4.215152	human_frontal_rna
UMB5577_1_UMB5577_2_H11_AD008_rna	9	10	11	9	-1.1883548	6.7628245	human_frontal_rna
UMB5577_1_UMB5577_2_H11_AD010_rna	2	3	1	1	13.027536	-4.122683	human_frontal_rna
UMB5577_1_UMB5577_2_H11_AD012_rna	1	1	17	18	11.815863	-10.350335	human_frontal_rna
UMB5577_1_UMB5577_2_H1_AD002_rna	4	5	4	11	-1.4740323	3.205675	human_frontal_rna
UMB5577_1_UMB5577_2_H1_AD004_rna	2	3	1	5	12.750878	-2.8379714	human_frontal_rna
UMB5577_1_UMB5577_2_H1_AD006_rna	6	7	7	29	-1.4377716	-9.902335	human_frontal_rna
UMB5577_1_UMB5577_2_H1_AD007_rna	2	1	1	27	11.019386	-4.006712	human_frontal_rna
UMB5577_1_UMB5577_2_H1_AD008_rna	6	7	7	32	0.8918894	-8.513394	human_frontal_rna
UMB5577_1_UMB5577_2_H1_AD010_rna	11	12	6	4	15.263938	1.1673249	human_frontal_rna
UMB5577_1_UMB5577_2_H1_AD012_rna	6	7	18	33	-3.295605	-9.880516	human_frontal_rna
UMB5577_1_UMB5577_2_H2_AD001_rna	4	5	4	15	3.3105762	1.0294753	human_frontal_rna
UMB5577_1_UMB5577_2_H2_AD002_rna	6	7	7	29	-0.08610185	-9.58316	human_frontal_rna
UMB5577_1_UMB5577_2_H2_AD004_rna	4	5	4	11	-0.14060335	2.8529034	human_frontal_rna
UMB5577_1_UMB5577_2_H2_AD006_rna	2	3	1	5	12.624211	-2.1452868	human_frontal_rna
UMB5577_1_UMB5577_2_H2_AD007_rna	6	7	7	29	0.038205948	-9.59014	human_frontal_rna
UMB5577_1_UMB5577_2_H2_AD008_rna	3	4	5	8	15.732061	9.210964	human_frontal_rna
UMB5577_1_UMB5577_2_H2_AD010_rna	1	1	3	7	10.421042	-7.787202	human_frontal_rna
UMB5577_1_UMB5577_2_H2_AD012_rna	4	5	4	21	1.611419	0.8364311	human_frontal_rna
UMB5577_1_UMB5577_2_H3_AD001_rna	2	1	1	1	12.1507635	-6.8002014	human_frontal_rna
UMB5577_1_UMB5577_2_H3_AD002_rna	1	2	3	20	7.0870986	-6.8506064	human_frontal_rna
UMB5577_1_UMB5577_2_H3_AD004_rna	1	2	2	12	8.622057	-10.564222	human_frontal_rna
UMB5577_1_UMB5577_2_H3_AD006_rna	14	15	16	49	-14.858811	1.737478	human_frontal_rna
UMB5577_1_UMB5577_2_H3_AD007_rna	8	9	10	40	-3.1851869	-5.5759144	human_frontal_rna
UMB5577_1_UMB5577_2_H3_AD008_rna	1	1	17	18	11.91687	-10.214697	human_frontal_rna
UMB5577_1_UMB5577_2_H3_AD010_rna	6	7	7	32	0.36716172	-7.167625	human_frontal_rna
UMB5577_1_UMB5577_2_H4_AD001_rna	1	2	2	12	8.314595	-10.948887	human_frontal_rna
UMB5577_1_UMB5577_2_H4_AD002_rna	1	1	3	17	9.319256	-5.9834337	human_frontal_rna
UMB5577_1_UMB5577_2_H4_AD004_rna	4	5	4	21	1.4774529	1.2824891	human_frontal_rna
UMB5577_1_UMB5577_2_H4_AD006_rna	4	5	4	21	1.1490275	0.7317015	human_frontal_rna
UMB5577_1_UMB5577_2_H4_AD007_rna	4	5	4	21	1.4781921	0.49712744	human_frontal_rna
UMB5577_1_UMB5577_2_H4_AD008_rna	7	8	9	13	4.0939198	5.935369	human_frontal_rna
UMB5577_1_UMB5577_2_H4_AD010_rna	11	12	6	10	18.301523	3.3080525	human_frontal_rna
UMB5577_1_UMB5577_2_H4_AD012_rna	4	5	4	11	2.2591414	3.035016	human_frontal_rna
UMB5577_1_UMB5577_2_H5_AD001_rna	1	2	2	14	6.654257	-10.326459	human_frontal_rna
UMB5577_1_UMB5577_2_H5_AD002_rna	4	5	4	11	-0.63535535	2.3381798	human_frontal_rna
UMB5577_1_UMB5577_2_H5_AD004_rna	1	2	2	3	7.44438	-8.408225	human_frontal_rna
UMB5577_1_UMB5577_2_H5_AD006_rna	2	1	1	27	10.751423	-6.0670013	human_frontal_rna
UMB5577_1_UMB5577_2_H5_AD007_rna	7	8	9	6	5.1460466	5.43666	human_frontal_rna
UMB5577_1_UMB5577_2_H5_AD008_rna	6	7	18	33	-2.9859643	-8.00519	human_frontal_rna
UMB5577_1_UMB5577_2_H5_AD012_rna	5	6	8	38	11.799536	14.542804	human_frontal_rna
UMB5577_1_UMB5577_2_H6_AD001_rna	11	12	6	10	18.070412	3.2089393	human_frontal_rna
UMB5577_1_UMB5577_2_H6_AD002_rna	3	4	5	8	17.080393	8.10582	human_frontal_rna
UMB5577_1_UMB5577_2_H6_AD004_rna	14	15	16	49	-14.154285	1.9334631	human_frontal_rna
UMB5577_1_UMB5577_2_H6_AD006_rna	9	10	11	39	-2.60891	4.297762	human_frontal_rna
UMB5577_1_UMB5577_2_H6_AD007_rna	8	9	10	30	-5.973882	-6.327463	human_frontal_rna
UMB5577_1_UMB5577_2_H6_AD008_rna	13	14	19	42	-7.453024	4.5666347	human_frontal_rna
UMB5577_1_UMB5577_2_H6_AD010_rna	2	1	3	24	11.950617	-7.552432	human_frontal_rna
UMB5577_1_UMB5577_2_H6_AD012_rna	5	6	15	34	7.7629857	10.822886	human_frontal_rna
UMB5577_1_UMB5577_2_H7_AD001_rna	2	1	1	1	11.402989	-3.7071946	human_frontal_rna
UMB5577_1_UMB5577_2_H7_AD002_rna	7	8	9	6	4.841106	3.0473166	human_frontal_rna
UMB5577_1_UMB5577_2_H7_AD004_rna	8	9	10	37	-4.885618	-7.994704	human_frontal_rna
UMB5577_1_UMB5577_2_H7_AD007_rna	6	7	7	29	-0.76302326	-10.547552	human_frontal_rna
UMB5577_1_UMB5577_2_H7_AD008_rna	1	2	2	14	6.1632366	-9.916531	human_frontal_rna
UMB5577_1_UMB5577_2_H7_AD010_rna	5	6	8	22	8.978686	12.626421	human_frontal_rna
UMB5577_1_UMB5577_2_H7_AD012_rna	1	1	3	7	9.872552	-7.9450426	human_frontal_rna
UMB5577_1_UMB5577_2_H8_AD001_rna	1	2	2	14	6.8207817	-10.63914	human_frontal_rna
UMB5577_1_UMB5577_2_H8_AD002_rna	13	14	22	45	-7.047118	3.3627005	human_frontal_rna
UMB5577_1_UMB5577_2_H8_AD004_rna	8	9	10	40	-3.7381246	-5.7280493	human_frontal_rna
UMB5577_1_UMB5577_2_H8_AD006_rna	2	1	1	1	11.630238	-6.3537703	human_frontal_rna
UMB5577_1_UMB5577_2_H8_AD008_rna	1	2	2	20	7.3325152	-7.3888702	human_frontal_rna
UMB5577_1_UMB5577_2_H8_AD010_rna	4	5	4	15	2.6988456	2.1529815	human_frontal_rna
UMB5577_1_UMB5577_2_H8_AD012_rna	1	2	2	12	8.408206	-10.241048	human_frontal_rna
UMB5577_1_UMB5577_2_H9_AD001_rna	1	2	2	3	6.6337004	-8.889401	human_frontal_rna
UMB5577_1_UMB5577_2_H9_AD002_rna	2	3	1	26	13.435072	-2.644631	human_frontal_rna
UMB5577_1_UMB5577_2_H9_AD004_rna	6	7	7	29	-0.087737866	-9.6061325	human_frontal_rna
UMB5577_1_UMB5577_2_H9_AD006_rna	5	6	8	28	7.7177725	13.387697	human_frontal_rna
UMB5577_1_UMB5577_2_H9_AD007_rna	11	12	6	10	15.327361	4.4814453	human_frontal_rna
UMB5577_1_UMB5577_2_H9_AD008_rna	10	11	14	19	-1.10593	-2.4491537	human_frontal_rna
UMB5577_1_UMB5577_2_H9_AD010_rna	6	7	18	33	-2.5389311	-10.287356	human_frontal_rna
UMB5577_3_UMB5577_4_A10_AD006_rna	5	6	8	22	9.331838	13.446014	human_frontal_rna
UMB5577_3_UMB5577_4_A10_AD007_rna	1	1	3	7	8.819022	-6.8906875	human_frontal_rna
UMB5577_3_UMB5577_4_A10_AD008_rna	2	3	1	1	13.309371	-3.7133203	human_frontal_rna
UMB5577_3_UMB5577_4_A10_AD010_rna	8	9	10	35	-7.4432826	-8.376523	human_frontal_rna
UMB5577_3_UMB5577_4_A10_AD012_rna	1	2	2	12	8.9300165	-9.018982	human_frontal_rna
UMB5577_3_UMB5577_4_A11_AD001_rna	2	1	1	27	11.040127	-4.9536004	human_frontal_rna
UMB5577_3_UMB5577_4_A11_AD002_rna	4	5	4	11	-1.3347113	3.2396975	human_frontal_rna
UMB5577_3_UMB5577_4_A11_AD004_rna	2	3	1	5	11.356073	-0.77848864	human_frontal_rna
UMB5577_3_UMB5577_4_A11_AD006_rna	6	7	7	50	-0.3080779	-11.85748	human_frontal_rna
UMB5577_3_UMB5577_4_A11_AD008_rna	8	9	10	35	-6.73276	-8.366692	human_frontal_rna
UMB5577_3_UMB5577_4_A11_AD010_rna	4	5	4	21	1.2663692	2.050856	human_frontal_rna
UMB5577_3_UMB5577_4_A11_AD012_rna	2	3	1	26	13.729751	-3.1488402	human_frontal_rna
UMB5577_3_UMB5577_4_A1_AD001_rna	1	1	3	7	10.757676	-7.1642327	human_frontal_rna
UMB5577_3_UMB5577_4_A1_AD004_rna	6	7	7	23	-0.11663893	-4.3982577	human_frontal_rna
UMB5577_3_UMB5577_4_A1_AD006_rna	1	2	2	3	5.760104	-8.775844	human_frontal_rna
UMB5577_3_UMB5577_4_A1_AD008_rna	2	3	6	4	14.955387	0.5749953	human_frontal_rna
UMB5577_3_UMB5577_4_A1_AD010_rna	5	6	8	22	8.867081	14.057244	human_frontal_rna
UMB5577_3_UMB5577_4_A1_AD012_rna	2	3	1	26	14.083159	-2.7336044	human_frontal_rna
UMB5577_3_UMB5577_4_A2_AD001_rna	8	9	10	30	-4.8982263	-5.686079	human_frontal_rna
UMB5577_3_UMB5577_4_A2_AD004_rna	4	5	4	15	7.5693517	-3.7912498	human_frontal_rna
UMB5577_3_UMB5577_4_A2_AD006_rna	10	11	12	31	4.909535	-3.4084044	human_frontal_rna
UMB5577_3_UMB5577_4_A2_AD008_rna	4	5	4	15	3.9732175	0.313091	human_frontal_rna
UMB5577_3_UMB5577_4_A2_AD010_rna	5	6	15	34	7.3533397	12.316704	human_frontal_rna
UMB5577_3_UMB5577_4_A2_AD012_rna	3	4	5	2	14.459035	6.942727	human_frontal_rna
UMB5577_3_UMB5577_4_A3_AD001_rna	3	4	5	2	14.786281	7.93206	human_frontal_rna
UMB5577_3_UMB5577_4_A3_AD002_rna	6	7	7	29	-0.3399316	-9.776482	human_frontal_rna
UMB5577_3_UMB5577_4_A3_AD004_rna	2	1	1	1	12.352259	-4.3360014	human_frontal_rna
UMB5577_3_UMB5577_4_A3_AD006_rna	2	1	1	27	9.887471	-3.888529	human_frontal_rna
UMB5577_3_UMB5577_4_A3_AD007_rna	1	2	2	12	8.559403	-10.38376	human_frontal_rna
UMB5577_3_UMB5577_4_A3_AD008_rna	10	11	12	31	6.559489	-3.780871	human_frontal_rna
UMB5577_3_UMB5577_4_A3_AD010_rna	1	1	3	7	9.07481	-6.2953434	human_frontal_rna
UMB5577_3_UMB5577_4_A3_AD012_rna	11	12	6	10	17.312466	3.757355	human_frontal_rna
UMB5577_3_UMB5577_4_A4_AD002_rna	2	3	6	4	13.513778	0.298216	human_frontal_rna
UMB5577_3_UMB5577_4_A4_AD004_rna	7	8	9	6	5.3716	4.971624	human_frontal_rna
UMB5577_3_UMB5577_4_A4_AD006_rna	1	2	2	14	7.6523447	-10.269342	human_frontal_rna
UMB5577_3_UMB5577_4_A4_AD007_rna	1	1	12	17	7.819572	-5.2068796	human_frontal_rna
UMB5577_3_UMB5577_4_A4_AD008_rna	2	3	1	5	12.437138	-2.7962062	human_frontal_rna
UMB5577_3_UMB5577_4_A4_AD010_rna	1	1	17	18	10.70898	-10.433011	human_frontal_rna
UMB5577_3_UMB5577_4_A4_AD012_rna	2	3	1	5	11.676053	-1.5752246	human_frontal_rna
UMB5577_3_UMB5577_4_A5_AD002_rna	6	7	7	29	-1.6845853	-10.564482	human_frontal_rna
UMB5577_3_UMB5577_4_A5_AD004_rna	2	3	6	4	13.780883	-0.44869328	human_frontal_rna
UMB5577_3_UMB5577_4_A5_AD006_rna	4	5	4	15	3.2226746	-0.19049944	human_frontal_rna
UMB5577_3_UMB5577_4_A5_AD007_rna	2	3	6	4	15.143284	-0.40453458	human_frontal_rna
UMB5577_3_UMB5577_4_A5_AD008_rna	11	12	6	10	17.341272	3.9017076	human_frontal_rna
UMB5577_3_UMB5577_4_A5_AD010_rna	1	2	2	3	7.930648	-8.523226	human_frontal_rna
UMB5577_3_UMB5577_4_A5_AD012_rna	8	9	10	35	-7.0966077	-8.270282	human_frontal_rna
UMB5577_3_UMB5577_4_A6_AD001_rna	10	11	14	19	-2.5894825	-2.178126	human_frontal_rna
UMB5577_3_UMB5577_4_A6_AD002_rna	1	2	12	17	6.1110044	-6.07238	human_frontal_rna
UMB5577_3_UMB5577_4_A6_AD004_rna	5	6	8	38	11.072274	14.349713	human_frontal_rna
UMB5577_3_UMB5577_4_A6_AD006_rna	6	7	18	33	-3.5444775	-9.679018	human_frontal_rna
UMB5577_3_UMB5577_4_A6_AD007_rna	1	2	2	12	8.120707	-10.428106	human_frontal_rna
UMB5577_3_UMB5577_4_A6_AD008_rna	1	1	3	25	9.744765	-5.9247756	human_frontal_rna
UMB5577_3_UMB5577_4_A6_AD010_rna	11	12	6	10	16.972868	3.388939	human_frontal_rna
UMB5577_3_UMB5577_4_A6_AD012_rna	1	1	3	25	9.725113	-5.694824	human_frontal_rna
UMB5577_3_UMB5577_4_A7_AD002_rna	1	2	2	20	6.807135	-7.0374856	human_frontal_rna
UMB5577_3_UMB5577_4_A7_AD004_rna	1	2	2	14	7.020708	-10.483151	human_frontal_rna
UMB5577_3_UMB5577_4_A7_AD006_rna	5	6	15	34	8.119289	11.819343	human_frontal_rna
UMB5577_3_UMB5577_4_A7_AD007_rna	4	5	4	15	2.6342514	0.26967418	human_frontal_rna
UMB5577_3_UMB5577_4_A7_AD008_rna	6	7	7	23	-0.31609982	-4.160226	human_frontal_rna
UMB5577_3_UMB5577_4_A7_AD010_rna	1	1	3	7	8.689139	-7.68148	human_frontal_rna
UMB5577_3_UMB5577_4_A7_AD012_rna	3	4	5	8	16.843536	8.919733	human_frontal_rna
UMB5577_3_UMB5577_4_A8_AD001_rna	2	3	1	5	11.023257	-1.5195414	human_frontal_rna
UMB5577_3_UMB5577_4_A8_AD002_rna	2	1	1	1	12.164001	-5.4672213	human_frontal_rna
UMB5577_3_UMB5577_4_A8_AD004_rna	4	5	4	15	3.90609	2.267772	human_frontal_rna
UMB5577_3_UMB5577_4_A8_AD007_rna	2	3	1	1	13.021508	-4.898689	human_frontal_rna
UMB5577_3_UMB5577_4_A8_AD008_rna	8	9	10	37	-4.2846394	-9.363878	human_frontal_rna
UMB5577_3_UMB5577_4_A8_AD010_rna	11	12	6	10	16.818073	4.0633264	human_frontal_rna
UMB5577_3_UMB5577_4_A8_AD012_rna	2	1	1	27	10.580788	-5.7410274	human_frontal_rna
UMB5577_3_UMB5577_4_A9_AD002_rna	12	13	13	16	19.53472	0.30051306	human_frontal_rna
UMB5577_3_UMB5577_4_A9_AD006_rna	12	13	13	16	20.358913	-0.09437954	human_frontal_rna
UMB5577_3_UMB5577_4_A9_AD007_rna	1	2	2	12	8.47079	-9.635143	human_frontal_rna
UMB5577_3_UMB5577_4_A9_AD008_rna	1	2	3	20	7.701762	-6.402592	human_frontal_rna
UMB5577_3_UMB5577_4_A9_AD010_rna	1	11	12	17	7.2811003	-4.0943904	human_frontal_rna
UMB5577_3_UMB5577_4_A9_AD012_rna	2	3	6	4	13.632976	-0.7417041	human_frontal_rna
UMB5577_3_UMB5577_4_B10_AD002_rna	1	1	3	7	9.165008	-6.3974957	human_frontal_rna
UMB5577_3_UMB5577_4_B10_AD004_rna	7	8	9	13	4.0544257	7.016235	human_frontal_rna
UMB5577_3_UMB5577_4_B10_AD006_rna	4	5	4	21	1.4645829	1.5096709	human_frontal_rna
UMB5577_3_UMB5577_4_B10_AD007_rna	8	9	10	35	-6.9812446	-8.4336	human_frontal_rna
UMB5577_3_UMB5577_4_B10_AD008_rna	1	1	3	25	7.507126	-6.868496	human_frontal_rna
UMB5577_3_UMB5577_4_B10_AD010_rna	8	9	10	37	-4.6547976	-9.095209	human_frontal_rna
UMB5577_3_UMB5577_4_B10_AD012_rna	1	2	2	12	8.665873	-10.115878	human_frontal_rna
UMB5577_3_UMB5577_4_B11_AD001_rna	1	2	3	20	8.428265	-6.1012073	human_frontal_rna
UMB5577_3_UMB5577_4_B11_AD002_rna	11	12	6	10	18.100365	3.4320157	human_frontal_rna
UMB5577_3_UMB5577_4_B11_AD004_rna	7	8	9	13	3.37747	7.323874	human_frontal_rna
UMB5577_3_UMB5577_4_B11_AD006_rna	7	8	9	13	3.978861	5.7642407	human_frontal_rna
UMB5577_3_UMB5577_4_B11_AD007_rna	5	6	8	22	9.679555	13.621889	human_frontal_rna
UMB5577_3_UMB5577_4_B11_AD008_rna	7	8	9	13	4.217949	6.8303022	human_frontal_rna
UMB5577_3_UMB5577_4_B11_AD010_rna	5	6	8	22	8.897822	13.231386	human_frontal_rna
UMB5577_3_UMB5577_4_B11_AD012_rna	2	3	6	4	14.7528105	-1.4241678	human_frontal_rna
UMB5577_3_UMB5577_4_B1_AD001_rna	1	2	2	12	9.524677	-10.432548	human_frontal_rna
UMB5577_3_UMB5577_4_B1_AD002_rna	8	9	10	37	-3.9605446	-9.478277	human_frontal_rna
UMB5577_3_UMB5577_4_B1_AD004_rna	1	2	12	17	6.746588	-5.313745	human_frontal_rna
UMB5577_3_UMB5577_4_B1_AD006_rna	1	2	3	7	8.176523	-7.690745	human_frontal_rna
UMB5577_3_UMB5577_4_B1_AD007_rna	6	7	18	33	-2.9808764	-9.767344	human_frontal_rna
UMB5577_3_UMB5577_4_B1_AD008_rna	2	3	6	4	13.092047	-0.22267011	human_frontal_rna
UMB5577_3_UMB5577_4_B1_AD010_rna	6	7	7	23	-2.4575968	-6.719228	human_frontal_rna
UMB5577_3_UMB5577_4_B1_AD012_rna	2	3	1	26	13.803706	-3.3946602	human_frontal_rna
UMB5577_3_UMB5577_4_B2_AD002_rna	1	2	2	3	4.9566803	-8.231372	human_frontal_rna
UMB5577_3_UMB5577_4_B2_AD004_rna	1	2	2	14	6.178988	-8.031025	human_frontal_rna
UMB5577_3_UMB5577_4_B2_AD006_rna	4	5	4	15	3.6347728	1.3363706	human_frontal_rna
UMB5577_3_UMB5577_4_B2_AD007_rna	1	2	12	17	6.216172	-6.404017	human_frontal_rna
UMB5577_3_UMB5577_4_B2_AD008_rna	6	7	18	33	-2.8895147	-8.131367	human_frontal_rna
UMB5577_3_UMB5577_4_B2_AD010_rna	10	11	14	19	-1.3699902	-2.3932157	human_frontal_rna
UMB5577_3_UMB5577_4_B2_AD012_rna	2	3	1	5	11.837862	-2.6271136	human_frontal_rna
UMB5577_3_UMB5577_4_B3_AD001_rna	2	3	1	1	12.214582	-3.9304998	human_frontal_rna
UMB5577_3_UMB5577_4_B3_AD002_rna	1	2	2	3	7.8362083	-8.8520775	human_frontal_rna
UMB5577_3_UMB5577_4_B3_AD004_rna	4	5	4	15	2.9585686	1.6534766	human_frontal_rna
UMB5577_3_UMB5577_4_B3_AD007_rna	1	1	3	25	9.2361355	-5.408328	human_frontal_rna
UMB5577_3_UMB5577_4_B3_AD008_rna	2	3	1	1	11.588876	-4.57804	human_frontal_rna
UMB5577_3_UMB5577_4_B3_AD010_rna	1	2	2	3	7.4771824	-8.528797	human_frontal_rna
UMB5577_3_UMB5577_4_B3_AD012_rna	2	1	1	1	12.602469	-5.183432	human_frontal_rna
UMB5577_3_UMB5577_4_B4_AD001_rna	2	1	12	27	9.523141	-4.9013886	human_frontal_rna
UMB5577_3_UMB5577_4_B4_AD002_rna	10	11	14	19	-3.5242693	-2.2231948	human_frontal_rna
UMB5577_3_UMB5577_4_B4_AD004_rna	3	4	5	2	14.380017	7.659019	human_frontal_rna
UMB5577_3_UMB5577_4_B4_AD006_rna	2	3	6	4	13.970643	-0.55627173	human_frontal_rna
UMB5577_3_UMB5577_4_B4_AD007_rna	2	1	1	27	10.758465	-6.2016654	human_frontal_rna
UMB5577_3_UMB5577_4_B4_AD008_rna	5	6	8	28	8.335164	13.387028	human_frontal_rna
UMB5577_3_UMB5577_4_B4_AD010_rna	5	6	8	38	11.4787445	14.915641	human_frontal_rna
UMB5577_3_UMB5577_4_B4_AD012_rna	4	5	4	11	1.1360682	2.9006336	human_frontal_rna
UMB5577_3_UMB5577_4_B5_AD001_rna	1	2	2	14	6.491151	-9.795723	human_frontal_rna
UMB5577_3_UMB5577_4_B5_AD002_rna	2	1	1	27	11.006184	-5.8812337	human_frontal_rna
UMB5577_3_UMB5577_4_B5_AD004_rna	2	3	1	5	11.965296	-1.7122416	human_frontal_rna
UMB5577_3_UMB5577_4_B5_AD006_rna	11	12	6	10	17.596533	3.2602086	human_frontal_rna
UMB5577_3_UMB5577_4_B5_AD007_rna	3	4	5	8	16.32646	8.968562	human_frontal_rna
UMB5577_3_UMB5577_4_B5_AD008_rna	6	7	7	50	-0.24885823	-12.369971	human_frontal_rna
UMB5577_3_UMB5577_4_B5_AD010_rna	9	10	11	9	-1.6672193	5.4931097	human_frontal_rna
UMB5577_3_UMB5577_4_B5_AD012_rna	16	17	21	43	7.730167	0.22246824	human_frontal_rna
UMB5577_3_UMB5577_4_B6_AD002_rna	15	16	20	36	-14.750908	-7.400381	human_frontal_rna
UMB5577_3_UMB5577_4_B6_AD004_rna	7	8	9	13	4.4005184	6.076353	human_frontal_rna
UMB5577_3_UMB5577_4_B6_AD006_rna	5	6	8	22	8.828429	13.346322	human_frontal_rna
UMB5577_3_UMB5577_4_B6_AD007_rna	4	5	4	11	0.110469386	2.8122442	human_frontal_rna
UMB5577_3_UMB5577_4_B6_AD008_rna	6	7	7	50	-0.2852403	-12.411315	human_frontal_rna
UMB5577_3_UMB5577_4_B6_AD010_rna	11	12	6	10	15.950619	3.1092103	human_frontal_rna
UMB5577_3_UMB5577_4_B6_AD012_rna	10	11	14	19	-3.3368034	-2.3415346	human_frontal_rna
UMB5577_3_UMB5577_4_B7_AD001_rna	1	2	2	20	7.2591424	-7.183656	human_frontal_rna
UMB5577_3_UMB5577_4_B7_AD002_rna	4	5	4	11	-0.69254947	2.4175453	human_frontal_rna
UMB5577_3_UMB5577_4_B7_AD004_rna	3	4	5	2	14.407533	8.020989	human_frontal_rna
UMB5577_3_UMB5577_4_B7_AD006_rna	5	6	8	28	7.722138	13.246303	human_frontal_rna
UMB5577_3_UMB5577_4_B7_AD007_rna	4	5	4	15	3.5162792	0.78973895	human_frontal_rna
UMB5577_3_UMB5577_4_B7_AD008_rna	2	3	1	26	12.943447	-2.153509	human_frontal_rna
UMB5577_3_UMB5577_4_B7_AD010_rna	3	4	5	8	16.176477	9.0826645	human_frontal_rna
UMB5577_3_UMB5577_4_B7_AD012_rna	5	6	8	38	11.212373	14.919046	human_frontal_rna
UMB5577_3_UMB5577_4_B8_AD001_rna	5	6	8	34	8.6011	12.763007	human_frontal_rna
UMB5577_3_UMB5577_4_B8_AD002_rna	3	4	13	41	13.676355	9.331112	human_frontal_rna
UMB5577_3_UMB5577_4_B8_AD004_rna	1	2	2	12	7.5592985	-10.031565	human_frontal_rna
UMB5577_3_UMB5577_4_B8_AD007_rna	7	8	9	13	4.033036	5.7071466	human_frontal_rna
UMB5577_3_UMB5577_4_B8_AD008_rna	10	11	14	19	-3.1929204	-1.1875157	human_frontal_rna
UMB5577_3_UMB5577_4_B8_AD010_rna	4	5	4	21	1.7664677	1.5933996	human_frontal_rna
UMB5577_3_UMB5577_4_B8_AD012_rna	13	14	19	42	-7.392773	4.686365	human_frontal_rna
UMB5577_3_UMB5577_4_B9_AD001_rna	1	1	17	18	11.892495	-10.272922	human_frontal_rna
UMB5577_3_UMB5577_4_B9_AD002_rna	4	5	4	21	1.8845439	-0.17065057	human_frontal_rna
UMB5577_3_UMB5577_4_B9_AD004_rna	6	7	7	32	1.1352282	-7.6642327	human_frontal_rna
UMB5577_3_UMB5577_4_B9_AD006_rna	6	7	7	23	-0.902249	-7.0242586	human_frontal_rna
UMB5577_3_UMB5577_4_B9_AD007_rna	1	2	2	14	6.103	-8.241763	human_frontal_rna
UMB5577_3_UMB5577_4_B9_AD008_rna	6	7	18	33	-2.9824967	-8.14212	human_frontal_rna
UMB5577_3_UMB5577_4_B9_AD010_rna	2	1	3	27	10.207861	-5.730085	human_frontal_rna
UMB5577_3_UMB5577_4_B9_AD012_rna	3	4	13	41	13.309355	10.244351	human_frontal_rna
UMB5577_3_UMB5577_4_C10_AD002_rna	1	1	3	18	12.133676	-8.797086	human_frontal_rna
UMB5577_3_UMB5577_4_C10_AD004_rna	2	3	1	1	12.91671	-4.7025447	human_frontal_rna
UMB5577_3_UMB5577_4_C10_AD006_rna	1	1	3	7	8.839565	-7.729298	human_frontal_rna
UMB5577_3_UMB5577_4_C10_AD007_rna	2	3	1	5	11.288363	-1.6302416	human_frontal_rna
UMB5577_3_UMB5577_4_C10_AD008_rna	11	12	6	10	16.733751	2.6876924	human_frontal_rna
UMB5577_3_UMB5577_4_C10_AD010_rna	8	9	10	37	-4.834218	-7.260794	human_frontal_rna
UMB5577_3_UMB5577_4_C10_AD012_rna	2	3	1	1	13.14557	-4.9029417	human_frontal_rna
UMB5577_3_UMB5577_4_C11_AD001_rna	2	3	6	4	14.925373	-0.2711698	human_frontal_rna
UMB5577_3_UMB5577_4_C11_AD002_rna	1	2	2	17	6.635057	-5.878268	human_frontal_rna
UMB5577_3_UMB5577_4_C11_AD004_rna	2	3	6	4	13.9467	0.30539134	human_frontal_rna
UMB5577_3_UMB5577_4_C11_AD006_rna	2	1	1	27	9.861719	-4.6398935	human_frontal_rna
UMB5577_3_UMB5577_4_C11_AD007_rna	4	5	4	21	1.183385	-0.3914046	human_frontal_rna
UMB5577_3_UMB5577_4_C11_AD008_rna	2	1	1	1	12.407329	-5.1842995	human_frontal_rna
UMB5577_3_UMB5577_4_C11_AD010_rna	4	5	4	15	3.0513558	0.9885177	human_frontal_rna
UMB5577_3_UMB5577_4_C11_AD012_rna	6	7	7	50	-0.17990999	-12.349657	human_frontal_rna
UMB5577_3_UMB5577_4_C1_AD001_rna	1	2	2	20	6.4342995	-6.62132	human_frontal_rna
UMB5577_3_UMB5577_4_C1_AD002_rna	1	1	12	17	8.8094635	-4.547307	human_frontal_rna
UMB5577_3_UMB5577_4_C1_AD004_rna	8	9	10	35	-8.468107	-8.43318	human_frontal_rna
UMB5577_3_UMB5577_4_C1_AD006_rna	1	2	2	17	5.977531	-7.101152	human_frontal_rna
UMB5577_3_UMB5577_4_C1_AD007_rna	1	2	3	25	8.1134405	-6.5985	human_frontal_rna
UMB5577_3_UMB5577_4_C1_AD008_rna	13	14	22	45	-6.943162	2.9934473	human_frontal_rna
UMB5577_3_UMB5577_4_C1_AD010_rna	7	8	9	6	4.6625395	4.5509353	human_frontal_rna
UMB5577_3_UMB5577_4_C1_AD012_rna	11	12	6	10	18.000433	3.298507	human_frontal_rna
UMB5577_3_UMB5577_4_C2_AD001_rna	8	9	10	35	-8.496597	-8.483152	human_frontal_rna
UMB5577_3_UMB5577_4_C2_AD002_rna	1	1	3	7	9.232788	-7.2010884	human_frontal_rna
UMB5577_3_UMB5577_4_C2_AD004_rna	6	7	7	29	-0.73611075	-10.870106	human_frontal_rna
UMB5577_3_UMB5577_4_C2_AD006_rna	1	2	2	3	5.8254423	-8.756683	human_frontal_rna
UMB5577_3_UMB5577_4_C2_AD007_rna	1	2	2	14	6.680768	-9.6533575	human_frontal_rna
UMB5577_3_UMB5577_4_C2_AD008_rna	3	4	5	2	16.359339	7.375904	human_frontal_rna
UMB5577_3_UMB5577_4_C2_AD010_rna	2	3	1	5	12.053556	-2.1614392	human_frontal_rna
UMB5577_3_UMB5577_4_C2_AD012_rna	1	2	2	20	6.7206736	-7.704213	human_frontal_rna
UMB5577_3_UMB5577_4_C3_AD001_rna	1	2	2	12	8.933015	-9.218121	human_frontal_rna
UMB5577_3_UMB5577_4_C3_AD002_rna	3	4	5	8	15.891884	8.567233	human_frontal_rna
UMB5577_3_UMB5577_4_C3_AD004_rna	2	1	12	27	9.186663	-3.9216716	human_frontal_rna
UMB5577_3_UMB5577_4_C3_AD006_rna	8	9	10	40	-4.1700373	-5.771647	human_frontal_rna
UMB5577_3_UMB5577_4_C3_AD007_rna	2	1	1	1	12.396832	-6.0026793	human_frontal_rna
UMB5577_3_UMB5577_4_C3_AD008_rna	1	1	12	17	8.18576	-4.0893464	human_frontal_rna
UMB5577_3_UMB5577_4_C3_AD010_rna	5	6	8	38	11.191308	14.68188	human_frontal_rna
UMB5577_3_UMB5577_4_C3_AD012_rna	2	1	1	27	11.030969	-4.933621	human_frontal_rna
UMB5577_3_UMB5577_4_C4_AD001_rna	1	2	2	20	6.066737	-7.3377175	human_frontal_rna
UMB5577_3_UMB5577_4_C4_AD002_rna	1	2	2	3	6.936937	-8.208797	human_frontal_rna
UMB5577_3_UMB5577_4_C4_AD004_rna	5	6	8	38	11.550681	14.736633	human_frontal_rna
UMB5577_3_UMB5577_4_C4_AD006_rna	11	12	6	10	15.846057	3.3441002	human_frontal_rna
UMB5577_3_UMB5577_4_C4_AD007_rna	11	12	6	10	15.255526	3.6376438	human_frontal_rna
UMB5577_3_UMB5577_4_C4_AD008_rna	8	9	10	30	-5.952605	-6.2271886	human_frontal_rna
UMB5577_3_UMB5577_4_C4_AD010_rna	2	3	1	5	11.122434	-1.3817744	human_frontal_rna
UMB5577_3_UMB5577_4_C4_AD012_rna	1	2	2	12	8.583508	-8.116408	human_frontal_rna
UMB5577_3_UMB5577_4_C5_AD001_rna	5	6	8	22	10.245621	14.365959	human_frontal_rna
UMB5577_3_UMB5577_4_C5_AD002_rna	4	5	4	21	1.1086011	0.61406934	human_frontal_rna
UMB5577_3_UMB5577_4_C5_AD004_rna	9	10	11	9	-0.97486335	5.4919934	human_frontal_rna
UMB5577_3_UMB5577_4_C5_AD006_rna	7	8	9	13	4.484174	5.993112	human_frontal_rna
UMB5577_3_UMB5577_4_C5_AD007_rna	8	9	10	40	-4.307362	-4.287267	human_frontal_rna
UMB5577_3_UMB5577_4_C5_AD008_rna	4	5	4	21	1.4666541	0.26681262	human_frontal_rna
UMB5577_3_UMB5577_4_C5_AD010_rna	5	6	8	22	9.16485	13.546253	human_frontal_rna
UMB5577_3_UMB5577_4_C5_AD012_rna	2	3	1	1	13.418117	-3.99431	human_frontal_rna
UMB5577_3_UMB5577_4_C6_AD001_rna	1	1	17	18	9.783635	-9.579783	human_frontal_rna
UMB5577_3_UMB5577_4_C6_AD002_rna	8	9	10	37	-4.756427	-9.001986	human_frontal_rna
UMB5577_3_UMB5577_4_C6_AD004_rna	15	16	20	36	-15.116263	-6.9517736	human_frontal_rna
UMB5577_3_UMB5577_4_C6_AD006_rna	1	2	2	14	6.928893	-10.162136	human_frontal_rna
UMB5577_3_UMB5577_4_C6_AD007_rna	8	9	10	40	-4.6696177	-4.971721	human_frontal_rna
UMB5577_3_UMB5577_4_C6_AD008_rna	1	1	3	17	9.511965	-6.8787937	human_frontal_rna
UMB5577_3_UMB5577_4_C6_AD010_rna	5	6	8	28	7.010448	13.652729	human_frontal_rna
UMB5577_3_UMB5577_4_C6_AD012_rna	15	16	20	36	-15.01435	-6.9960766	human_frontal_rna
UMB5577_3_UMB5577_4_C7_AD002_rna	1	2	2	12	9.1453495	-10.391153	human_frontal_rna
UMB5577_3_UMB5577_4_C7_AD004_rna	11	12	6	10	15.979964	3.363759	human_frontal_rna
UMB5577_3_UMB5577_4_C7_AD006_rna	15	16	20	36	-14.559053	-7.4629073	human_frontal_rna
UMB5577_3_UMB5577_4_C7_AD007_rna	1	1	3	25	8.905031	-5.570535	human_frontal_rna
UMB5577_3_UMB5577_4_C7_AD008_rna	6	7	7	23	-0.5116899	-5.634306	human_frontal_rna
UMB5577_3_UMB5577_4_C7_AD010_rna	8	9	10	40	-4.1803737	-4.1770787	human_frontal_rna
UMB5577_3_UMB5577_4_C7_AD012_rna	2	3	1	26	13.964337	-2.6648686	human_frontal_rna
UMB5577_3_UMB5577_4_C8_AD001_rna	7	8	9	13	4.512421	6.1811266	human_frontal_rna
UMB5577_3_UMB5577_4_C8_AD002_rna	4	5	4	11	-0.5606504	2.2391644	human_frontal_rna
UMB5577_3_UMB5577_4_C8_AD004_rna	11	12	6	10	17.164526	2.950645	human_frontal_rna
UMB5577_3_UMB5577_4_C8_AD006_rna	2	3	1	5	12.605442	-2.7525027	human_frontal_rna
UMB5577_3_UMB5577_4_C8_AD007_rna	2	3	1	5	11.719336	-2.761087	human_frontal_rna
UMB5577_3_UMB5577_4_C8_AD008_rna	9	10	11	9	-0.054728165	6.284922	human_frontal_rna
UMB5577_3_UMB5577_4_C8_AD010_rna	5	6	8	38	11.6827	14.681353	human_frontal_rna
UMB5577_3_UMB5577_4_C8_AD012_rna	11	12	6	10	17.95379	3.3557749	human_frontal_rna
UMB5577_3_UMB5577_4_C9_AD002_rna	1	2	3	20	7.6859612	-7.131243	human_frontal_rna
UMB5577_3_UMB5577_4_C9_AD004_rna	2	1	1	27	10.950961	-6.049408	human_frontal_rna
UMB5577_3_UMB5577_4_C9_AD006_rna	7	8	9	6	4.8095407	3.7912855	human_frontal_rna
UMB5577_3_UMB5577_4_C9_AD007_rna	10	11	14	19	-3.6393871	-2.2367885	human_frontal_rna
UMB5577_3_UMB5577_4_C9_AD008_rna	2	3	1	5	12.825115	-4.1556	human_frontal_rna
UMB5577_3_UMB5577_4_C9_AD010_rna	2	3	1	26	13.576161	-2.179906	human_frontal_rna
UMB5577_3_UMB5577_4_C9_AD012_rna	1	1	17	18	10.089302	-9.836094	human_frontal_rna
UMB5577_3_UMB5577_4_D10_AD001_rna	1	2	3	20	7.217639	-6.883888	human_frontal_rna
UMB5577_3_UMB5577_4_D10_AD002_rna	3	4	5	8	16.720509	8.938864	human_frontal_rna
UMB5577_3_UMB5577_4_D10_AD004_rna	8	9	10	35	-8.244947	-8.647842	human_frontal_rna
UMB5577_3_UMB5577_4_D10_AD006_rna	1	2	2	12	8.517242	-10.798621	human_frontal_rna
UMB5577_3_UMB5577_4_D10_AD007_rna	4	5	4	15	2.503503	2.191794	human_frontal_rna
UMB5577_3_UMB5577_4_D10_AD008_rna	2	3	1	1	13.313485	-4.0412016	human_frontal_rna
UMB5577_3_UMB5577_4_D10_AD010_rna	1	2	12	20	7.3586307	-6.3296757	human_frontal_rna
UMB5577_3_UMB5577_4_D10_AD012_rna	2	3	1	1	11.627898	-4.131812	human_frontal_rna
UMB5577_3_UMB5577_4_D1_AD002_rna	9	10	11	9	-0.20772555	6.9071674	human_frontal_rna
UMB5577_3_UMB5577_4_D1_AD004_rna	1	1	17	18	10.304675	-9.760758	human_frontal_rna
UMB5577_3_UMB5577_4_D1_AD006_rna	9	10	11	9	-0.30287045	6.3446393	human_frontal_rna
UMB5577_3_UMB5577_4_D1_AD007_rna	1	1	3	25	9.746107	-4.466423	human_frontal_rna
UMB5577_3_UMB5577_4_D1_AD008_rna	6	7	7	29	0.101872794	-9.530517	human_frontal_rna
UMB5577_3_UMB5577_4_D1_AD010_rna	4	5	4	21	1.6646943	1.6971697	human_frontal_rna
UMB5577_3_UMB5577_4_D1_AD012_rna	1	2	2	17	6.7940726	-6.0730977	human_frontal_rna
UMB5577_3_UMB5577_4_D2_AD001_rna	2	1	1	27	10.719046	-5.369368	human_frontal_rna
UMB5577_3_UMB5577_4_D2_AD002_rna	2	3	1	1	12.765184	-4.702927	human_frontal_rna
UMB5577_3_UMB5577_4_D2_AD004_rna	2	1	1	27	10.699907	-5.570584	human_frontal_rna
UMB5577_3_UMB5577_4_D2_AD006_rna	1	2	2	12	8.48031	-9.749406	human_frontal_rna
UMB5577_3_UMB5577_4_D2_AD007_rna	4	5	4	11	2.236826	3.3005898	human_frontal_rna
UMB5577_3_UMB5577_4_D2_AD008_rna	6	7	7	23	-0.5268303	-4.4512353	human_frontal_rna
UMB5577_3_UMB5577_4_D2_AD010_rna	6	7	7	23	-1.5135857	-6.7037144	human_frontal_rna
UMB5577_3_UMB5577_4_D2_AD012_rna	3	4	5	8	16.7879	9.337746	human_frontal_rna
UMB5577_3_UMB5577_4_D3_AD001_rna	1	1	12	17	7.987125	-4.179018	human_frontal_rna
UMB5577_3_UMB5577_4_D3_AD002_rna	2	1	1	1	12.022909	-6.912535	human_frontal_rna
UMB5577_3_UMB5577_4_D3_AD004_rna	6	7	7	29	-1.4114568	-10.577784	human_frontal_rna
UMB5577_3_UMB5577_4_D3_AD006_rna	13	14	22	45	-6.9192176	3.0701597	human_frontal_rna
UMB5577_3_UMB5577_4_D3_AD008_rna	2	1	1	27	11.217559	-5.2513204	human_frontal_rna
UMB5577_3_UMB5577_4_D3_AD010_rna	1	1	3	7	9.241862	-7.544405	human_frontal_rna
UMB5577_3_UMB5577_4_D3_AD012_rna	1	1	12	17	8.7091675	-4.6177225	human_frontal_rna
UMB5577_3_UMB5577_4_D4_AD001_rna	1	2	2	12	7.498391	-10.762504	human_frontal_rna
UMB5577_3_UMB5577_4_D4_AD002_rna	5	6	8	22	9.101624	12.655907	human_frontal_rna
UMB5577_3_UMB5577_4_D4_AD004_rna	6	7	7	23	-0.6305795	-6.182123	human_frontal_rna
UMB5577_3_UMB5577_4_D4_AD006_rna	5	6	8	22	9.44139	13.778729	human_frontal_rna
UMB5577_3_UMB5577_4_D4_AD007_rna	1	1	17	18	11.930663	-10.680408	human_frontal_rna
UMB5577_3_UMB5577_4_D4_AD008_rna	2	1	3	7	10.338242	-6.569376	human_frontal_rna
UMB5577_3_UMB5577_4_D4_AD010_rna	1	2	2	12	8.221313	-10.698883	human_frontal_rna
UMB5577_3_UMB5577_4_D4_AD012_rna	10	11	14	19	-3.7287955	-1.9337732	human_frontal_rna
UMB5577_3_UMB5577_4_D5_AD001_rna	2	1	1	27	11.372264	-3.8605726	human_frontal_rna
UMB5577_3_UMB5577_4_D5_AD002_rna	1	2	2	12	8.866691	-9.556558	human_frontal_rna
UMB5577_3_UMB5577_4_D5_AD004_rna	6	7	7	32	0.96053225	-7.444106	human_frontal_rna
UMB5577_3_UMB5577_4_D5_AD006_rna	5	6	8	22	11.054017	13.73068	human_frontal_rna
UMB5577_3_UMB5577_4_D5_AD007_rna	4	5	4	21	1.3822069	0.8659501	human_frontal_rna
UMB5577_3_UMB5577_4_D5_AD008_rna	1	1	12	17	7.960134	-4.750397	human_frontal_rna
UMB5577_3_UMB5577_4_D5_AD010_rna	6	7	7	29	-0.62717444	-10.005893	human_frontal_rna
UMB5577_3_UMB5577_4_D5_AD012_rna	2	1	1	1	11.3167715	-5.1535106	human_frontal_rna
UMB5577_3_UMB5577_4_D6_AD001_rna	1	2	2	12	7.751286	-11.081854	human_frontal_rna
UMB5577_3_UMB5577_4_D6_AD002_rna	1	2	12	17	6.651871	-5.3650203	human_frontal_rna
UMB5577_3_UMB5577_4_D6_AD004_rna	6	7	7	29	-1.3904233	-9.9401655	human_frontal_rna
UMB5577_3_UMB5577_4_D6_AD006_rna	2	1	1	27	10.554351	-4.342771	human_frontal_rna
UMB5577_3_UMB5577_4_D6_AD007_rna	6	7	7	32	0.86357546	-7.375354	human_frontal_rna
UMB5577_3_UMB5577_4_D6_AD008_rna	1	1	12	17	7.193792	-4.022308	human_frontal_rna
UMB5577_3_UMB5577_4_D6_AD010_rna	1	2	2	14	7.2991304	-10.527271	human_frontal_rna
UMB5577_3_UMB5577_4_D6_AD012_rna	5	6	8	28	7.4738355	13.156338	human_frontal_rna
UMB5577_3_UMB5577_4_D7_AD001_rna	1	2	12	17	6.0872574	-5.019454	human_frontal_rna
UMB5577_3_UMB5577_4_D7_AD002_rna	4	5	4	11	1.7281442	3.0492742	human_frontal_rna
UMB5577_3_UMB5577_4_D7_AD004_rna	13	14	19	48	-3.4042115	15.107365	human_frontal_rna
UMB5577_3_UMB5577_4_D7_AD006_rna	6	7	7	50	-0.34167877	-12.373328	human_frontal_rna
UMB5577_3_UMB5577_4_D7_AD007_rna	11	12	6	10	17.049513	2.8492603	human_frontal_rna
UMB5577_3_UMB5577_4_D7_AD008_rna	4	5	4	21	1.796322	1.522296	human_frontal_rna
UMB5577_3_UMB5577_4_D7_AD010_rna	6	7	7	29	0.081278026	-8.904186	human_frontal_rna
UMB5577_3_UMB5577_4_D7_AD012_rna	1	2	2	12	8.70036	-8.260221	human_frontal_rna
UMB5577_3_UMB5577_4_D8_AD001_rna	2	3	1	5	11.772067	-1.1172663	human_frontal_rna
UMB5577_3_UMB5577_4_D8_AD002_rna	1	1	3	25	9.066563	-4.828114	human_frontal_rna
UMB5577_3_UMB5577_4_D8_AD004_rna	5	6	15	34	7.803764	11.591778	human_frontal_rna
UMB5577_3_UMB5577_4_D8_AD006_rna	7	8	9	13	2.9490032	7.240973	human_frontal_rna
UMB5577_3_UMB5577_4_D8_AD007_rna	6	7	7	32	0.8251842	-7.9609365	human_frontal_rna
UMB5577_3_UMB5577_4_D8_AD008_rna	4	5	4	11	0.23180477	2.140669	human_frontal_rna
UMB5577_3_UMB5577_4_D8_AD010_rna	2	1	1	27	10.787861	-4.2338285	human_frontal_rna
UMB5577_3_UMB5577_4_D8_AD012_rna	1	1	3	18	11.260649	-8.123009	human_frontal_rna
UMB5577_3_UMB5577_4_D9_AD002_rna	2	3	1	5	12.142272	-1.5046096	human_frontal_rna
UMB5577_3_UMB5577_4_D9_AD004_rna	2	3	1	1	12.20335	-3.921753	human_frontal_rna
UMB5577_3_UMB5577_4_D9_AD007_rna	2	3	1	26	14.296068	-2.839117	human_frontal_rna
UMB5577_3_UMB5577_4_D9_AD008_rna	13	14	19	48	-3.5567822	15.171342	human_frontal_rna
UMB5577_3_UMB5577_4_D9_AD010_rna	1	2	2	20	6.7538476	-6.9621873	human_frontal_rna
UMB5577_3_UMB5577_4_D9_AD012_rna	1	2	2	12	7.850946	-10.073902	human_frontal_rna
UMB5577_3_UMB5577_4_E10_AD004_rna	1	1	3	7	9.970243	-7.904461	human_frontal_rna
UMB5577_3_UMB5577_4_E10_AD006_rna	6	7	7	29	-0.2467147	-9.489853	human_frontal_rna
UMB5577_3_UMB5577_4_E10_AD007_rna	2	3	1	5	11.1683235	-1.8688135	human_frontal_rna
UMB5577_3_UMB5577_4_E10_AD008_rna	1	2	3	20	7.971203	-6.832101	human_frontal_rna
UMB5577_3_UMB5577_4_E10_AD012_rna	12	13	13	16	21.32377	-0.0060587483	human_frontal_rna
UMB5577_3_UMB5577_4_E11_AD001_rna	1	1	12	17	8.024883	-4.209081	human_frontal_rna
UMB5577_3_UMB5577_4_E11_AD002_rna	4	5	4	11	-1.186303	3.0275598	human_frontal_rna
UMB5577_3_UMB5577_4_E11_AD004_rna	5	6	8	22	10.397858	13.435768	human_frontal_rna
UMB5577_3_UMB5577_4_E11_AD006_rna	5	6	15	34	8.955289	12.260521	human_frontal_rna
UMB5577_3_UMB5577_4_E11_AD007_rna	11	12	6	10	16.896193	3.9015312	human_frontal_rna
UMB5577_3_UMB5577_4_E11_AD008_rna	10	11	14	19	-1.4257584	-2.397311	human_frontal_rna
UMB5577_3_UMB5577_4_E11_AD010_rna	6	7	7	23	-0.6444907	-7.194863	human_frontal_rna
UMB5577_3_UMB5577_4_E11_AD012_rna	4	5	4	21	1.0118487	1.3236945	human_frontal_rna
UMB5577_3_UMB5577_4_E1_AD001_rna	2	1	1	27	10.523198	-4.211333	human_frontal_rna
UMB5577_3_UMB5577_4_E1_AD002_rna	2	1	1	27	11.118307	-4.7121162	human_frontal_rna
UMB5577_3_UMB5577_4_E1_AD004_rna	2	3	1	5	11.855612	-2.7380326	human_frontal_rna
UMB5577_3_UMB5577_4_E1_AD006_rna	4	5	4	15	3.2996933	0.94478244	human_frontal_rna
UMB5577_3_UMB5577_4_E1_AD007_rna	6	7	7	23	-2.5301242	-6.717605	human_frontal_rna
UMB5577_3_UMB5577_4_E1_AD008_rna	7	8	9	6	5.4892006	4.8405933	human_frontal_rna
UMB5577_3_UMB5577_4_E1_AD010_rna	13	14	19	42	-7.0564094	4.9948907	human_frontal_rna
UMB5577_3_UMB5577_4_E1_AD012_rna	1	2	2	12	8.594854	-10.006539	human_frontal_rna
UMB5577_3_UMB5577_4_E2_AD002_rna	4	5	4	21	0.82188	0.6964201	human_frontal_rna
UMB5577_3_UMB5577_4_E2_AD004_rna	1	2	3	20	8.764323	-5.5373406	human_frontal_rna
UMB5577_3_UMB5577_4_E2_AD006_rna	1	2	2	14	6.917112	-8.999057	human_frontal_rna
UMB5577_3_UMB5577_4_E2_AD007_rna	1	2	2	12	8.278273	-10.087508	human_frontal_rna
UMB5577_3_UMB5577_4_E2_AD008_rna	1	2	2	14	7.0530906	-9.443504	human_frontal_rna
UMB5577_3_UMB5577_4_E2_AD010_rna	6	7	7	29	-1.3536747	-10.52246	human_frontal_rna
UMB5577_3_UMB5577_4_E2_AD012_rna	1	2	3	3	7.0038276	-7.301069	human_frontal_rna
UMB5577_3_UMB5577_4_E3_AD001_rna	2	3	1	5	11.7560835	-2.0648086	human_frontal_rna
UMB5577_3_UMB5577_4_E3_AD002_rna	2	3	1	5	11.903754	-2.0851102	human_frontal_rna
UMB5577_3_UMB5577_4_E3_AD004_rna	5	6	8	22	10.679592	13.929115	human_frontal_rna
UMB5577_3_UMB5577_4_E3_AD006_rna	8	9	10	40	-4.5154166	-5.8117914	human_frontal_rna
UMB5577_3_UMB5577_4_E3_AD007_rna	2	1	1	27	10.970189	-5.3663297	human_frontal_rna
UMB5577_3_UMB5577_4_E3_AD008_rna	5	6	8	28	7.029616	13.013631	human_frontal_rna
UMB5577_3_UMB5577_4_E3_AD010_rna	8	9	10	37	-4.5499587	-9.455805	human_frontal_rna
UMB5577_3_UMB5577_4_E3_AD012_rna	2	1	3	24	10.430334	-5.958967	human_frontal_rna
UMB5577_3_UMB5577_4_E4_AD001_rna	13	14	19	42	-7.087937	4.909903	human_frontal_rna
UMB5577_3_UMB5577_4_E4_AD002_rna	2	1	1	1	12.425115	-6.039251	human_frontal_rna
UMB5577_3_UMB5577_4_E4_AD006_rna	1	2	3	20	7.4197307	-7.1688147	human_frontal_rna
UMB5577_3_UMB5577_4_E4_AD007_rna	5	6	8	28	6.7621174	13.774029	human_frontal_rna
UMB5577_3_UMB5577_4_E4_AD008_rna	3	4	13	41	13.879419	9.987292	human_frontal_rna
UMB5577_3_UMB5577_4_E4_AD010_rna	6	7	7	23	-0.15818278	-7.744337	human_frontal_rna
UMB5577_3_UMB5577_4_E4_AD012_rna	9	10	11	9	-0.6516178	5.7724094	human_frontal_rna
UMB5577_3_UMB5577_4_E5_AD001_rna	8	9	10	30	-6.3139153	-6.594385	human_frontal_rna
UMB5577_3_UMB5577_4_E5_AD002_rna	2	3	1	5	12.846793	-4.06999	human_frontal_rna
UMB5577_3_UMB5577_4_E5_AD004_rna	1	1	3	7	8.707039	-7.774933	human_frontal_rna
UMB5577_3_UMB5577_4_E5_AD006_rna	9	10	11	9	-0.7056979	6.486551	human_frontal_rna
UMB5577_3_UMB5577_4_E5_AD007_rna	7	8	9	13	4.0368757	5.788519	human_frontal_rna
UMB5577_3_UMB5577_4_E5_AD008_rna	12	13	13	16	20.892963	-0.040169515	human_frontal_rna
UMB5577_3_UMB5577_4_E5_AD010_rna	4	5	4	15	3.4386349	0.4008893	human_frontal_rna
UMB5577_3_UMB5577_4_E5_AD012_rna	2	3	1	5	11.14052	-1.5705924	human_frontal_rna
UMB5577_3_UMB5577_4_E6_AD001_rna	5	6	8	38	10.87103	14.697772	human_frontal_rna
UMB5577_3_UMB5577_4_E6_AD002_rna	6	7	7	29	-0.015354964	-9.222918	human_frontal_rna
UMB5577_3_UMB5577_4_E6_AD004_rna	8	9	10	30	-5.457239	-5.914177	human_frontal_rna
UMB5577_3_UMB5577_4_E6_AD006_rna	5	6	15	34	8.090167	11.764486	human_frontal_rna
UMB5577_3_UMB5577_4_E6_AD007_rna	10	11	12	31	6.6446047	-3.8674116	human_frontal_rna
UMB5577_3_UMB5577_4_E6_AD008_rna	3	4	5	8	15.964539	9.4128065	human_frontal_rna
UMB5577_3_UMB5577_4_E6_AD010_rna	1	1	12	17	7.946144	-5.4330826	human_frontal_rna
UMB5577_3_UMB5577_4_E6_AD012_rna	6	7	18	33	-2.9092805	-7.657234	human_frontal_rna
UMB5577_3_UMB5577_4_E7_AD002_rna	3	4	5	8	16.126701	8.8325815	human_frontal_rna
UMB5577_3_UMB5577_4_E7_AD004_rna	9	10	11	9	-1.2668871	5.5006113	human_frontal_rna
UMB5577_3_UMB5577_4_E7_AD007_rna	2	3	6	4	14.086605	0.37696394	human_frontal_rna
UMB5577_3_UMB5577_4_E7_AD008_rna	12	13	13	16	20.663057	0.19122471	human_frontal_rna
UMB5577_3_UMB5577_4_E7_AD010_rna	5	6	8	28	6.8302665	13.667488	human_frontal_rna
UMB5577_3_UMB5577_4_E7_AD012_rna	2	1	1	27	9.612182	-4.3461337	human_frontal_rna
UMB5577_3_UMB5577_4_E8_AD001_rna	8	9	10	35	-8.126102	-8.388528	human_frontal_rna
UMB5577_3_UMB5577_4_E8_AD002_rna	1	1	12	17	8.001593	-5.830182	human_frontal_rna
UMB5577_3_UMB5577_4_E8_AD004_rna	1	1	12	17	8.682915	-5.0073586	human_frontal_rna
UMB5577_3_UMB5577_4_E8_AD007_rna	1	2	2	17	7.103637	-6.367295	human_frontal_rna
UMB5577_3_UMB5577_4_E8_AD008_rna	1	1	3	25	9.108776	-4.4199185	human_frontal_rna
UMB5577_3_UMB5577_4_E8_AD010_rna	1	2	12	17	6.684609	-5.205656	human_frontal_rna
UMB5577_3_UMB5577_4_E8_AD012_rna	1	1	3	7	9.865166	-7.012187	human_frontal_rna
UMB5577_3_UMB5577_4_E9_AD004_rna	9	10	11	39	-2.6317992	4.418885	human_frontal_rna
UMB5577_3_UMB5577_4_E9_AD007_rna	4	5	4	21	1.4557956	-0.16785012	human_frontal_rna
UMB5577_3_UMB5577_4_E9_AD008_rna	2	1	1	27	10.60105	-5.4484425	human_frontal_rna
UMB5577_3_UMB5577_4_E9_AD010_rna	2	3	1	26	14.354969	-2.5486	human_frontal_rna
UMB5577_3_UMB5577_4_E9_AD012_rna	8	9	10	40	-4.3153467	-5.924032	human_frontal_rna
UMB5577_3_UMB5577_4_F10_AD002_rna	5	6	8	22	8.600315	13.369108	human_frontal_rna
UMB5577_3_UMB5577_4_F10_AD004_rna	6	7	7	50	-0.35146365	-11.703387	human_frontal_rna
UMB5577_3_UMB5577_4_F10_AD006_rna	7	8	9	13	4.0890365	6.6754994	human_frontal_rna
UMB5577_3_UMB5577_4_F10_AD007_rna	10	11	14	19	-3.042648	-1.8964715	human_frontal_rna
UMB5577_3_UMB5577_4_F10_AD008_rna	2	1	3	27	10.441631	-5.6121964	human_frontal_rna
UMB5577_3_UMB5577_4_F10_AD010_rna	1	2	2	3	7.69074	-8.538109	human_frontal_rna
UMB5577_3_UMB5577_4_F10_AD012_rna	11	12	6	10	15.176552	1.9972723	human_frontal_rna
UMB5577_3_UMB5577_4_F11_AD002_rna	1	1	3	27	9.924823	-5.18187	human_frontal_rna
UMB5577_3_UMB5577_4_F11_AD004_rna	1	1	3	7	10.320927	-7.8389153	human_frontal_rna
UMB5577_3_UMB5577_4_F11_AD006_rna	1	1	3	27	9.602298	-6.0420356	human_frontal_rna
UMB5577_3_UMB5577_4_F11_AD007_rna	1	1	3	7	9.744054	-7.7707367	human_frontal_rna
UMB5577_3_UMB5577_4_F11_AD008_rna	6	7	7	32	0.6949499	-8.82832	human_frontal_rna
UMB5577_3_UMB5577_4_F11_AD010_rna	11	12	6	10	14.619197	2.2707846	human_frontal_rna
UMB5577_3_UMB5577_4_F11_AD012_rna	4	5	4	15	3.7979808	0.22391611	human_frontal_rna
UMB5577_3_UMB5577_4_F1_AD001_rna	2	1	3	27	10.562829	-5.668688	human_frontal_rna
UMB5577_3_UMB5577_4_F1_AD002_rna	1	2	2	12	7.9414825	-9.883342	human_frontal_rna
UMB5577_3_UMB5577_4_F1_AD004_rna	2	1	1	5	10.942645	-2.2254288	human_frontal_rna
UMB5577_3_UMB5577_4_F1_AD006_rna	4	5	4	21	0.7084441	1.158308	human_frontal_rna
UMB5577_3_UMB5577_4_F1_AD007_rna	12	13	13	16	20.849052	-0.41457602	human_frontal_rna
UMB5577_3_UMB5577_4_F1_AD008_rna	2	3	6	4	12.630861	-0.75485194	human_frontal_rna
UMB5577_3_UMB5577_4_F1_AD010_rna	1	2	2	3	5.5696626	-8.034175	human_frontal_rna
UMB5577_3_UMB5577_4_F1_AD012_rna	5	6	8	22	9.908204	14.484941	human_frontal_rna
UMB5577_3_UMB5577_4_F2_AD001_rna	6	7	7	29	-0.15193689	-9.657097	human_frontal_rna
UMB5577_3_UMB5577_4_F2_AD002_rna	2	3	1	5	11.121589	-1.6349124	human_frontal_rna
UMB5577_3_UMB5577_4_F2_AD004_rna	5	6	8	22	10.040364	14.359898	human_frontal_rna
UMB5577_3_UMB5577_4_F2_AD006_rna	4	5	4	11	-1.0403498	2.8612165	human_frontal_rna
UMB5577_3_UMB5577_4_F2_AD007_rna	2	3	1	26	13.478531	-2.518538	human_frontal_rna
UMB5577_3_UMB5577_4_F2_AD008_rna	1	2	12	17	6.128575	-4.983408	human_frontal_rna
UMB5577_3_UMB5577_4_F2_AD010_rna	2	3	1	26	13.643242	-1.8770305	human_frontal_rna
UMB5577_3_UMB5577_4_F2_AD012_rna	7	8	9	6	4.7488008	4.935308	human_frontal_rna
UMB5577_3_UMB5577_4_F3_AD002_rna	3	4	5	2	16.074226	7.0151587	human_frontal_rna
UMB5577_3_UMB5577_4_F3_AD004_rna	1	1	3	7	9.185262	-7.5345497	human_frontal_rna
UMB5577_3_UMB5577_4_F3_AD006_rna	1	1	12	17	7.8086514	-5.143511	human_frontal_rna
UMB5577_3_UMB5577_4_F3_AD007_rna	3	4	5	2	15.021196	8.796892	human_frontal_rna
UMB5577_3_UMB5577_4_F3_AD008_rna	5	6	8	28	8.418001	14.467204	human_frontal_rna
UMB5577_3_UMB5577_4_F3_AD010_rna	11	12	6	10	17.334614	2.8332143	human_frontal_rna
UMB5577_3_UMB5577_4_F3_AD012_rna	1	2	2	14	6.163356	-9.687653	human_frontal_rna
UMB5577_3_UMB5577_4_F4_AD001_rna	1	1	17	18	11.06252	-10.922989	human_frontal_rna
UMB5577_3_UMB5577_4_F4_AD002_rna	3	4	5	8	16.309673	9.085917	human_frontal_rna
UMB5577_3_UMB5577_4_F4_AD004_rna	7	8	9	6	5.732851	4.671031	human_frontal_rna
UMB5577_3_UMB5577_4_F4_AD006_rna	3	4	5	8	16.792784	8.761266	human_frontal_rna
UMB5577_3_UMB5577_4_F4_AD007_rna	1	1	12	17	7.7576623	-5.5432787	human_frontal_rna
UMB5577_3_UMB5577_4_F4_AD008_rna	1	2	12	17	6.182749	-6.1462994	human_frontal_rna
UMB5577_3_UMB5577_4_F4_AD010_rna	4	5	4	15	3.8640711	0.43034613	human_frontal_rna
UMB5577_3_UMB5577_4_F4_AD012_rna	5	6	8	22	9.113481	13.804932	human_frontal_rna
UMB5577_3_UMB5577_4_F5_AD001_rna	2	1	1	27	9.847942	-4.8278146	human_frontal_rna
UMB5577_3_UMB5577_4_F5_AD002_rna	1	1	12	17	6.9790163	-4.7889166	human_frontal_rna
UMB5577_3_UMB5577_4_F5_AD004_rna	1	2	2	20	6.121611	-7.2199507	human_frontal_rna
UMB5577_3_UMB5577_4_F5_AD006_rna	4	5	4	11	-0.030608714	2.4489584	human_frontal_rna
UMB5577_3_UMB5577_4_F5_AD007_rna	6	7	7	32	1.1230245	-7.918456	human_frontal_rna
UMB5577_3_UMB5577_4_F5_AD008_rna	1	2	2	3	5.8573275	-9.350922	human_frontal_rna
UMB5577_3_UMB5577_4_F5_AD010_rna	1	2	12	17	6.4760227	-5.8944283	human_frontal_rna
UMB5577_3_UMB5577_4_F5_AD012_rna	3	4	5	8	16.078651	9.922746	human_frontal_rna
UMB5577_3_UMB5577_4_F6_AD001_rna	5	6	8	38	12.400964	14.858944	human_frontal_rna
UMB5577_3_UMB5577_4_F6_AD002_rna	2	1	1	1	12.43826	-5.66568	human_frontal_rna
UMB5577_3_UMB5577_4_F6_AD006_rna	5	6	8	22	10.038347	14.641263	human_frontal_rna
UMB5577_3_UMB5577_4_F6_AD007_rna	5	6	8	28	8.236891	13.925144	human_frontal_rna
UMB5577_3_UMB5577_4_F6_AD010_rna	10	11	12	31	5.371531	-3.7945707	human_frontal_rna
UMB5577_3_UMB5577_4_F6_AD012_rna	1	2	2	17	6.674119	-6.179591	human_frontal_rna
UMB5577_3_UMB5577_4_F7_AD002_rna	10	11	14	19	-1.4485556	-2.3796964	human_frontal_rna
UMB5577_3_UMB5577_4_F7_AD004_rna	7	8	9	6	4.7967443	5.4146643	human_frontal_rna
UMB5577_3_UMB5577_4_F7_AD006_rna	1	1	17	18	9.984789	-9.935003	human_frontal_rna
UMB5577_3_UMB5577_4_F7_AD007_rna	1	1	12	17	8.012893	-6.3016815	human_frontal_rna
UMB5577_3_UMB5577_4_F7_AD008_rna	1	1	3	7	11.046184	-7.8314743	human_frontal_rna
UMB5577_3_UMB5577_4_F7_AD012_rna	10	11	14	19	-3.3646429	-1.3951831	human_frontal_rna
UMB5577_3_UMB5577_4_F8_AD001_rna	2	3	6	4	13.716353	-0.7491214	human_frontal_rna
UMB5577_3_UMB5577_4_F8_AD002_rna	6	7	7	32	0.70714587	-7.569437	human_frontal_rna
UMB5577_3_UMB5577_4_F8_AD004_rna	1	2	2	14	7.607815	-8.233831	human_frontal_rna
UMB5577_3_UMB5577_4_F8_AD007_rna	2	3	6	4	14.089929	0.8504748	human_frontal_rna
UMB5577_3_UMB5577_4_F8_AD008_rna	2	3	1	26	13.0484915	-2.229302	human_frontal_rna
UMB5577_3_UMB5577_4_F8_AD010_rna	10	11	14	19	-2.9309301	-1.5613494	human_frontal_rna
UMB5577_3_UMB5577_4_F8_AD012_rna	10	11	14	19	-0.77714306	-2.309499	human_frontal_rna
UMB5577_3_UMB5577_4_F9_AD001_rna	7	8	9	13	4.160531	6.1774993	human_frontal_rna
UMB5577_3_UMB5577_4_F9_AD002_rna	1	1	12	17	8.927169	-5.5594535	human_frontal_rna
UMB5577_3_UMB5577_4_F9_AD004_rna	1	2	2	14	6.144031	-9.364699	human_frontal_rna
UMB5577_3_UMB5577_4_F9_AD006_rna	1	2	2	3	7.559513	-7.9838552	human_frontal_rna
UMB5577_3_UMB5577_4_F9_AD007_rna	8	9	10	40	-4.6049175	-4.765697	human_frontal_rna
UMB5577_3_UMB5577_4_F9_AD008_rna	1	1	3	7	9.373559	-6.2712765	human_frontal_rna
UMB5577_3_UMB5577_4_F9_AD010_rna	6	7	7	32	0.53081465	-7.7359443	human_frontal_rna
UMB5577_3_UMB5577_4_F9_AD012_rna	5	6	8	38	11.226337	14.773526	human_frontal_rna
UMB5577_3_UMB5577_4_G10_AD001_rna	1	2	2	14	6.6973934	-10.539537	human_frontal_rna
UMB5577_3_UMB5577_4_G10_AD002_rna	4	5	4	11	1.3583864	2.4298432	human_frontal_rna
UMB5577_3_UMB5577_4_G10_AD004_rna	7	8	9	13	4.5693736	5.689315	human_frontal_rna
UMB5577_3_UMB5577_4_G10_AD006_rna	1	2	2	12	8.2023535	-9.942048	human_frontal_rna
UMB5577_3_UMB5577_4_G10_AD007_rna	2	3	1	1	12.0447035	-4.0805902	human_frontal_rna
UMB5577_3_UMB5577_4_G10_AD008_rna	1	2	2	12	7.958729	-11.123864	human_frontal_rna
UMB5577_3_UMB5577_4_G10_AD010_rna	8	9	10	40	-4.5539913	-4.552814	human_frontal_rna
UMB5577_3_UMB5577_4_G10_AD012_rna	2	3	1	5	13.117457	-2.3720026	human_frontal_rna
UMB5577_3_UMB5577_4_G11_AD001_rna	1	2	12	17	6.715446	-4.511316	human_frontal_rna
UMB5577_3_UMB5577_4_G11_AD002_rna	3	4	5	2	14.215575	8.412764	human_frontal_rna
UMB5577_3_UMB5577_4_G11_AD004_rna	7	8	9	13	3.9399123	6.6457295	human_frontal_rna
UMB5577_3_UMB5577_4_G11_AD006_rna	6	7	7	29	-1.5457103	-9.964853	human_frontal_rna
UMB5577_3_UMB5577_4_G11_AD008_rna	1	2	2	20	5.944473	-7.353276	human_frontal_rna
UMB5577_3_UMB5577_4_G11_AD010_rna	3	4	5	2	15.502823	5.106505	human_frontal_rna
UMB5577_3_UMB5577_4_G11_AD012_rna	1	2	3	20	7.921773	-6.90578	human_frontal_rna
UMB5577_3_UMB5577_4_G1_AD001_rna	1	1	17	18	11.983527	-10.49831	human_frontal_rna
UMB5577_3_UMB5577_4_G1_AD004_rna	10	11	14	19	-3.6339493	-1.7752429	human_frontal_rna
UMB5577_3_UMB5577_4_G1_AD006_rna	2	3	1	26	13.200948	-2.4486365	human_frontal_rna
UMB5577_3_UMB5577_4_G1_AD008_rna	3	4	5	8	16.006903	8.841415	human_frontal_rna
UMB5577_3_UMB5577_4_G1_AD010_rna	7	8	9	6	4.7678685	5.4061937	human_frontal_rna
UMB5577_3_UMB5577_4_G2_AD001_rna	4	5	4	21	1.3089281	2.0655057	human_frontal_rna
UMB5577_3_UMB5577_4_G2_AD002_rna	1	1	12	17	8.565291	-5.418464	human_frontal_rna
UMB5577_3_UMB5577_4_G2_AD006_rna	6	7	7	29	-0.016352119	-9.623125	human_frontal_rna
UMB5577_3_UMB5577_4_G2_AD007_rna	4	5	4	21	2.0783129	0.3712482	human_frontal_rna
UMB5577_3_UMB5577_4_G2_AD008_rna	10	11	14	19	-2.438033	-1.6047206	human_frontal_rna
UMB5577_3_UMB5577_4_G2_AD010_rna	7	8	9	6	5.5591707	4.603604	human_frontal_rna
UMB5577_3_UMB5577_4_G2_AD012_rna	4	5	4	15	3.2239435	0.63179064	human_frontal_rna
UMB5577_3_UMB5577_4_G3_AD001_rna	2	1	1	1	11.741863	-5.213079	human_frontal_rna
UMB5577_3_UMB5577_4_G3_AD002_rna	6	7	7	29	-0.7255018	-9.530789	human_frontal_rna
UMB5577_3_UMB5577_4_G3_AD004_rna	1	1	12	17	8.003981	-4.2396626	human_frontal_rna
UMB5577_3_UMB5577_4_G3_AD006_rna	1	1	3	7	9.383467	-7.38913	human_frontal_rna
UMB5577_3_UMB5577_4_G3_AD007_rna	15	16	20	36	-14.663694	-7.5430317	human_frontal_rna
UMB5577_3_UMB5577_4_G3_AD008_rna	2	3	1	5	11.246894	-0.937653	human_frontal_rna
UMB5577_3_UMB5577_4_G3_AD010_rna	2	1	1	27	10.957608	-4.913335	human_frontal_rna
UMB5577_3_UMB5577_4_G3_AD012_rna	1	2	3	20	7.7415175	-6.305609	human_frontal_rna
UMB5577_3_UMB5577_4_G4_AD002_rna	1	1	17	18	11.82267	-10.495644	human_frontal_rna
UMB5577_3_UMB5577_4_G4_AD004_rna	2	3	1	26	13.456434	-2.743869	human_frontal_rna
UMB5577_3_UMB5577_4_G4_AD006_rna	3	4	5	2	15.792994	6.034328	human_frontal_rna
UMB5577_3_UMB5577_4_G4_AD007_rna	1	2	2	20	6.3700633	-7.494598	human_frontal_rna
UMB5577_3_UMB5577_4_G4_AD008_rna	6	7	18	33	-3.030056	-9.952245	human_frontal_rna
UMB5577_3_UMB5577_4_G4_AD010_rna	15	16	20	36	-14.220209	-7.418384	human_frontal_rna
UMB5577_3_UMB5577_4_G4_AD012_rna	2	1	1	1	12.381463	-5.6349735	human_frontal_rna
UMB5577_3_UMB5577_4_G5_AD001_rna	3	4	5	2	14.263515	7.943855	human_frontal_rna
UMB5577_3_UMB5577_4_G5_AD002_rna	1	2	2	14	6.425203	-9.047915	human_frontal_rna
UMB5577_3_UMB5577_4_G5_AD004_rna	6	7	18	33	-2.1940196	-10.381907	human_frontal_rna
UMB5577_3_UMB5577_4_G5_AD006_rna	2	3	6	4	13.625002	-0.4413896	human_frontal_rna
UMB5577_3_UMB5577_4_G5_AD007_rna	6	7	7	32	-0.30035126	-7.199244	human_frontal_rna
UMB5577_3_UMB5577_4_G5_AD008_rna	2	1	3	24	10.951011	-6.9860897	human_frontal_rna
UMB5577_3_UMB5577_4_G5_AD010_rna	4	5	4	11	0.34114483	2.3618505	human_frontal_rna
UMB5577_3_UMB5577_4_G5_AD012_rna	8	9	10	40	-4.4215612	-4.170954	human_frontal_rna
UMB5577_3_UMB5577_4_G6_AD001_rna	5	6	15	34	8.373759	12.102433	human_frontal_rna
UMB5577_3_UMB5577_4_G6_AD002_rna	1	1	17	18	9.872288	-9.957449	human_frontal_rna
UMB5577_3_UMB5577_4_G6_AD004_rna	1	1	17	18	10.7637415	-9.604752	human_frontal_rna
UMB5577_3_UMB5577_4_G6_AD006_rna	7	8	9	6	5.108287	5.2490244	human_frontal_rna
UMB5577_3_UMB5577_4_G6_AD007_rna	4	5	4	15	3.5359519	0.3382971	human_frontal_rna
UMB5577_3_UMB5577_4_G6_AD008_rna	3	4	5	2	14.427945	7.398509	human_frontal_rna
UMB5577_3_UMB5577_4_G6_AD010_rna	1	2	2	12	8.007324	-9.425127	human_frontal_rna
UMB5577_3_UMB5577_4_G6_AD012_rna	6	7	7	29	-1.1137236	-10.641094	human_frontal_rna
UMB5577_3_UMB5577_4_G7_AD001_rna	1	2	2	25	8.0359745	-7.1927323	human_frontal_rna
UMB5577_3_UMB5577_4_G7_AD002_rna	10	11	12	31	4.9909344	-3.3225787	human_frontal_rna
UMB5577_3_UMB5577_4_G7_AD004_rna	5	6	8	22	10.0133	14.580341	human_frontal_rna
UMB5577_3_UMB5577_4_G7_AD006_rna	8	9	10	37	-4.0805163	-9.404683	human_frontal_rna
UMB5577_3_UMB5577_4_G7_AD007_rna	9	10	11	9	0.28978765	6.7661595	human_frontal_rna
UMB5577_3_UMB5577_4_G7_AD008_rna	15	16	20	36	-14.354726	-7.3300505	human_frontal_rna
UMB5577_3_UMB5577_4_G7_AD010_rna	1	2	12	17	6.75122	-5.114657	human_frontal_rna
UMB5577_3_UMB5577_4_G7_AD012_rna	2	1	3	24	10.599594	-5.9388647	human_frontal_rna
UMB5577_3_UMB5577_4_G8_AD001_rna	2	3	6	4	13.453105	-0.5620053	human_frontal_rna
UMB5577_3_UMB5577_4_G8_AD004_rna	15	16	20	36	-14.426466	-6.9912367	human_frontal_rna
UMB5577_3_UMB5577_4_G8_AD006_rna	6	7	7	23	-0.1476206	-5.19668	human_frontal_rna
UMB5577_3_UMB5577_4_G8_AD007_rna	4	5	4	21	1.0665654	0.8267136	human_frontal_rna
UMB5577_3_UMB5577_4_G8_AD008_rna	1	2	2	20	6.1172695	-7.5729594	human_frontal_rna
UMB5577_3_UMB5577_4_G8_AD010_rna	4	5	4	11	-1.0351667	2.620142	human_frontal_rna
UMB5577_3_UMB5577_4_G8_AD012_rna	1	2	2	20	6.861996	-7.111493	human_frontal_rna
UMB5577_3_UMB5577_4_G9_AD001_rna	9	10	11	13	2.5778732	6.996381	human_frontal_rna
UMB5577_3_UMB5577_4_G9_AD002_rna	1	2	2	3	7.752764	-7.6717043	human_frontal_rna
UMB5577_3_UMB5577_4_G9_AD004_rna	2	3	1	5	11.3822975	-1.7664493	human_frontal_rna
UMB5577_3_UMB5577_4_G9_AD006_rna	1	1	12	17	7.4891667	-4.1164885	human_frontal_rna
UMB5577_3_UMB5577_4_G9_AD007_rna	8	9	10	37	-4.2419076	-9.282583	human_frontal_rna
UMB5577_3_UMB5577_4_G9_AD008_rna	2	3	1	5	11.475674	-2.0654325	human_frontal_rna
UMB5577_3_UMB5577_4_G9_AD012_rna	1	1	3	25	8.913804	-6.1517854	human_frontal_rna
UMB5577_3_UMB5577_4_H10_AD001_rna	10	11	14	19	-0.66896975	-2.3904347	human_frontal_rna
UMB5577_3_UMB5577_4_H10_AD004_rna	2	3	1	5	11.025053	-1.6506428	human_frontal_rna
UMB5577_3_UMB5577_4_H10_AD006_rna	4	5	4	15	2.752963	1.1029496	human_frontal_rna
UMB5577_3_UMB5577_4_H10_AD007_rna	4	5	4	11	-1.1866568	3.129493	human_frontal_rna
UMB5577_3_UMB5577_4_H10_AD008_rna	1	1	3	25	9.450482	-5.9033647	human_frontal_rna
UMB5577_3_UMB5577_4_H10_AD010_rna	2	3	6	4	14.299868	0.9072629	human_frontal_rna
UMB5577_3_UMB5577_4_H10_AD012_rna	1	2	12	17	5.9490128	-4.412445	human_frontal_rna
UMB5577_3_UMB5577_4_H11_AD001_rna	5	6	8	28	7.038813	13.668735	human_frontal_rna
UMB5577_3_UMB5577_4_H11_AD002_rna	2	1	1	1	12.197019	-5.348103	human_frontal_rna
UMB5577_3_UMB5577_4_H11_AD004_rna	2	3	1	5	12.2232685	-3.3002245	human_frontal_rna
UMB5577_3_UMB5577_4_H11_AD006_rna	5	6	8	38	11.929882	14.984324	human_frontal_rna
UMB5577_3_UMB5577_4_H11_AD007_rna	1	2	2	20	6.692065	-6.451492	human_frontal_rna
UMB5577_3_UMB5577_4_H11_AD008_rna	14	15	16	44	-16.30414	2.8075075	human_frontal_rna
UMB5577_3_UMB5577_4_H11_AD010_rna	6	7	7	29	-0.44738445	-9.938613	human_frontal_rna
UMB5577_3_UMB5577_4_H11_AD012_rna	2	3	1	1	11.531343	-3.6000955	human_frontal_rna
UMB5577_3_UMB5577_4_H1_AD002_rna	3	4	5	8	15.947481	9.247572	human_frontal_rna
UMB5577_3_UMB5577_4_H1_AD004_rna	10	11	14	19	-2.4388628	-1.4006921	human_frontal_rna
UMB5577_3_UMB5577_4_H1_AD006_rna	1	2	2	17	7.1758657	-6.2408495	human_frontal_rna
UMB5577_3_UMB5577_4_H1_AD007_rna	7	8	9	6	4.7383065	4.7414956	human_frontal_rna
UMB5577_3_UMB5577_4_H1_AD008_rna	1	2	2	12	7.7136307	-10.9384165	human_frontal_rna
UMB5577_3_UMB5577_4_H1_AD010_rna	9	10	11	9	-0.14395268	6.8869333	human_frontal_rna
UMB5577_3_UMB5577_4_H1_AD012_rna	10	11	14	19	-2.1142848	-1.4746996	human_frontal_rna
UMB5577_3_UMB5577_4_H2_AD001_rna	2	1	12	17	9.520918	-3.9956172	human_frontal_rna
UMB5577_3_UMB5577_4_H2_AD004_rna	8	9	10	37	-4.626449	-8.344653	human_frontal_rna
UMB5577_3_UMB5577_4_H2_AD007_rna	1	2	12	17	5.98884	-6.096094	human_frontal_rna
UMB5577_3_UMB5577_4_H2_AD008_rna	5	6	8	28	7.7833886	13.32283	human_frontal_rna
UMB5577_3_UMB5577_4_H2_AD010_rna	1	1	3	7	8.87947	-7.680655	human_frontal_rna
UMB5577_3_UMB5577_4_H2_AD012_rna	2	1	1	27	9.8203535	-4.398867	human_frontal_rna
UMB5577_3_UMB5577_4_H3_AD001_rna	7	8	9	6	5.064053	5.373752	human_frontal_rna
UMB5577_3_UMB5577_4_H3_AD002_rna	4	5	4	11	-0.9482414	2.91563	human_frontal_rna
UMB5577_3_UMB5577_4_H3_AD004_rna	10	11	14	19	-2.5729806	-1.4315705	human_frontal_rna
UMB5577_3_UMB5577_4_H3_AD007_rna	8	9	10	40	-4.1665726	-4.2347765	human_frontal_rna
UMB5577_3_UMB5577_4_H3_AD008_rna	2	1	1	27	10.03753	-5.3209805	human_frontal_rna
UMB5577_3_UMB5577_4_H3_AD010_rna	1	2	2	14	7.2603765	-8.720478	human_frontal_rna
UMB5577_3_UMB5577_4_H3_AD012_rna	1	2	2	17	6.6823287	-6.3329434	human_frontal_rna
UMB5577_3_UMB5577_4_H4_AD001_rna	1	2	2	14	6.620623	-10.313048	human_frontal_rna
UMB5577_3_UMB5577_4_H4_AD002_rna	7	8	9	6	4.754912	3.131487	human_frontal_rna
UMB5577_3_UMB5577_4_H4_AD004_rna	2	3	1	1	13.356368	-4.4174867	human_frontal_rna
UMB5577_3_UMB5577_4_H4_AD006_rna	7	8	9	13	4.021958	7.5380144	human_frontal_rna
UMB5577_3_UMB5577_4_H4_AD007_rna	2	3	1	1	12.444988	-4.273541	human_frontal_rna
